!!!!SEGMENT: pl-wtm--r-2545--001_hertz-michal--firdusi-no-1-chor.krn
!!!cenid: 18xx:3103
!!!COM: Hertz, Michał
!!!COM-rismID: pe41023359
!!!CDT: 1844/09/28-~1918
!!!CNT: Polish
!!!GTL: Firdusi
!!!OTL: No. 1 – Chór
!!!PDT:
!!!AGN:
!!!SMS-siglum: PL-Wtm
!!!SMS-shelfmark: R 2545
!!!SMS-shelfwork: 001 G
!!!SMS-variant:
!!!SMS-altvar:
!!!NIFC-rismSourceID: 1001081950
!!!NIFC-rismChildID: 1001081950
!!!NIFC-islandoraID:
!!!URL-pdf-islandora:
!!!URL-scan:
!!!ONB-nifc:
!!!AIN: 1 alto 1 bass 1 cbass 1 cello 1 clars 2 cor 1 fagot 2 flt 1 oboe 1 piatt 1 soprn 1 tambn 1 tenor 1 timpa 1 trngl 3 tromp 1 viola 2 violn
!!!key: F
!!!OMD: Allegro risoluto.
**kern	**dynam	**kern	**dynam	**kern	**dynam	**kern	**dynam	**kern	**dynam	**kern	**text	**kern	**text	**kern	**dynam	**kern	**dynam	**kern	**dynam	**kern	**dynam	**kern	**dynam	**kern	**dynam	**kern	**dynam	**kern	**dynam	**kern	**dynam	**kern	**dynam	**kern	**dynam	**kern	**dynam	**kern	**dynam
*	*	*	*	*	*	*	*	*	*	*group1	*	*group1	*	*	*	*	*	*	*	*	*	*	*	*	*	*	*	*	*	*	*	*	*	*	*	*	*	*	*
*	*	*	*	*	*	*	*	*	*	*I""Chór	*	*I""Chór	*	*	*	*	*	*	*	*	*	*	*	*	*	*	*	*	*	*	*	*	*	*	*	*	*	*	*
*part20	*part20	*part19	*part19	*part18	*part18	*part17	*part17	*part16	*part16	*part15	*part15	*part14	*part14	*part13	*part13	*part12	*part12	*part11	*part11	*part10	*part10	*part9	*part9	*part8	*part8	*part7	*part7	*part6	*part6	*part5	*part5	*part4	*part4	*part3	*part3	*part2	*part2	*part1	*part1
*staff20	*	*staff19	*	*staff18	*	*staff17	*	*staff16	*	*staff15	*staff15	*staff14	*staff14	*staff13	*	*staff12	*	*staff11	*	*staff10	*	*staff9	*	*staff8	*	*staff7	*	*staff6	*	*staff5	*	*staff4	*	*staff3	*	*staff2	*	*staff1	*
*I"Basso	*	*I"Cello	*	*I"Alto	*	*I"Viol 2°	*	*I"Viol 1°	*	*I"Ten Bas.	*	*I"Sopr Alt	*	*I"Tamb. mil. e Triango	*	*I"Tamb. gr. e Piatti	*	*I"Timpani in G. C	*	*I"Trombone	*	*I"Corni in F	*	*I"Corni in F	*	*I"Trombi in F	*	*I"Trombi in F	*	*I"Fag	*	*I"1 e 2 Clar in B	*	*I"Ob.	*	*I"1 e 2 Fl.	*	*I"1 e 2 Fl.	*
*Icbass	*	*Icello	*	*Iviola	*	*Ivioln	*	*Ivioln	*	*Itenor&Ibass	*	*Isoprn&Ialto	*	*Itrngl	*	*Itambn&Ipiatt	*	*Itimpa	*	*Itromp	*	*Icor	*	*Icor	*	*Itromp	*	*Itromp	*	*Ifagot	*	*Iclars	*	*Ioboe	*	*Iflt	*	*Iflt	*
*ICstr	*	*ICstr	*	*ICstr	*	*ICstr	*	*ICstr	*	*ICvox	*	*ICvox	*	*ICidio	*	*ICidio	*	*ICidio	*	*ICbras	*	*ICbras	*	*ICbras	*	*ICbras	*	*ICbras	*	*ICww	*	*ICww	*	*ICww	*	*ICww	*	*ICww	*
*	*	*	*	*	*	*	*	*	*	*IGcoro	*	*IGcoro	*	*	*	*	*	*	*	*	*	*	*	*	*	*	*	*	*	*	*	*	*	*	*	*	*	*	*
*clefF4	*	*clefF4	*	*clefC3	*	*clefG2	*	*clefG2	*	*clefF4	*	*clefG2	*	*clefG2	*	*clefF4	*	*clefF4	*	*clefF4	*	*clefG2	*	*clefG2	*	*clefG2	*	*clefG2	*	*clefF4	*	*clefG2	*	*clefG2	*	*clefG2	*	*clefG2	*
*ITrd0c0	*	*	*	*	*	*	*	*	*	*	*	*	*	*	*	*	*	*	*	*	*	*ITrd4c7	*	*ITrd4c7	*	*ITrd-3c-5	*	*ITrd-3c-5	*	*	*	*ITrd1c2	*	*	*	*	*	*	*
*k[b-]	*	*k[b-]	*	*k[b-]	*	*k[b-]	*	*k[b-]	*	*k[b-]	*	*k[b-]	*	*k[b-]	*	*k[b-]	*	*k[b-]	*	*k[b-]	*	*k[b-]	*	*k[b-]	*	*k[b-]	*	*k[b-]	*	*k[b-]	*	*k[b-]	*	*k[b-]	*	*k[b-]	*	*k[b-]	*
*F:	*	*F:	*	*F:	*	*F:	*	*F:	*	*F:	*	*F:	*	*F:	*	*F:	*	*F:	*	*F:	*	*F:	*	*F:	*	*F:	*	*F:	*	*F:	*	*F:	*	*F:	*	*F:	*	*F:	*
*M4/4	*	*M4/4	*	*M4/4	*	*M4/4	*	*M4/4	*	*M4/4	*	*M4/4	*	*M4/4	*	*M4/4	*	*M4/4	*	*M4/4	*	*M4/4	*	*M4/4	*	*M4/4	*	*M4/4	*	*M4/4	*	*M4/4	*	*M4/4	*	*M4/4	*	*M4/4	*
*met(c)	*	*met(c)	*	*met(c)	*	*met(c)	*	*met(c)	*	*met(c)	*	*met(c)	*	*met(c)	*	*met(c)	*	*met(c)	*	*met(c)	*	*met(c)	*	*met(c)	*	*met(c)	*	*met(c)	*	*met(c)	*	*met(c)	*	*met(c)	*	*met(c)	*	*met(c)	*
=1	=1	=1	=1	=1	=1	=1	=1	=1	=1	=1	=1	=1	=1	=1	=1	=1	=1	=1	=1	=1	=1	=1	=1	=1	=1	=1	=1	=1	=1	=1	=1	=1	=1	=1	=1	=1	=1	=1	=1
*	*	*	*	*	*	*	*	*	*below	*	*	*	*	*	*	*	*	*	*	*	*	*	*	*	*	*	*	*	*	*	*	*	*	*	*	*	*	*	*
!	!	!	!	!	!	!	!	!LO:TX:a:i:t=Allegro risoluto [quarter] = 132	!	!	!	!LO:TX:a:i:t=Allegro risoluto [quarter] = 132	!	!	!	!	!	!	!	!	!	!	!	!	!	!	!	!	!	!	!	!	!	!	!	!LO:TX:a:t=P:problem=dwie pięciolinie od t.14	!	!LO:TX:t=P:problem=all\left, middle or right&colon; global	!
1r	.	4r	.	4r	f	8r	f	8r	.	1r	.	1r	.	1ryy	.	1ryy	.	1r	.	1ryy	.	2r	.	2r	.	2r	.	2r	.	1r	.	1ryy	.	1ryy	.	1ryy	.	1ryy	.
.	.	.	.	.	.	16r	.	16r	f	.	.	.	.	.	.	.	.	.	.	.	.	.	.	.	.	.	.	.	.	.	.	.	.	.	.	.	.	.	.
.	.	.	f	.	.	16c/	.	16c/	.	.	.	.	.	.	.	.	.	.	.	.	.	.	.	.	.	.	.	.	.	.	.	.	.	.	.	.	.	.	.
*	*	*Xbrackettup	*	*Xbrackettup	*	*	*	*	*	*	*	*	*	*	*	*	*	*	*	*	*	*	*	*	*	*	*	*	*	*	*	*	*	*	*	*	*	*	*
!	!	!LO:TUP:a:problem=klamra łukowa	!	!LO:TUP:b:problem=klamra łukowa	!	!	!	!	!	!	!	!	!	!	!	!	!	!	!	!	!	!	!	!	!	!	!	!	!	!	!	!	!	!	!	!	!	!	!
.	.	12r	.	12r	.	[4c/	.	[4c/	.	.	.	.	.	.	.	.	.	.	.	.	.	.	.	.	.	.	.	.	.	.	.	.	.	.	.	.	.	.	.
.	.	12B-'\L	.	12B-'/L	.	.	.	.	.	.	.	.	.	.	.	.	.	.	.	.	.	.	.	.	.	.	.	.	.	.	.	.	.	.	.	.	.	.	.
.	.	12A'\J	.	12A'/J	.	.	.	.	.	.	.	.	.	.	.	.	.	.	.	.	.	.	.	.	.	.	.	.	.	.	.	.	.	.	.	.	.	.	.
!	!	!	!	!	!	!LO:TUP:b:problem=klamra łukowa	!	!LO:TUP:b:problem=klamra łukowa	!	!	!	!	!	!	!	!	!	!	!	!	!	!	!	!	!	!	!	!	!	!	!	!	!	!	!	!	!	!	!
.	.	[4B-\	.	[>4B-/	.	12c/L]	.	12c/L]	.	.	.	.	.	.	.	.	.	.	.	.	.	4r	.	4r	.	4r	.	4r	.	.	.	.	.	.	.	.	.	.	.
.	.	.	.	.	.	12d/	.	12d/	.	.	.	.	.	.	.	.	.	.	.	.	.	.	.	.	.	.	.	.	.	.	.	.	.	.	.	.	.	.	.
.	.	.	.	.	.	24r	.	24r	.	.	.	.	.	.	.	.	.	.	.	.	.	.	.	.	.	.	.	.	.	.	.	.	.	.	.	.	.	.	.
.	.	.	.	.	.	24c/Jk	.	24c/Jk	.	.	.	.	.	.	.	.	.	.	.	.	.	.	.	.	.	.	.	.	.	.	.	.	.	.	.	.	.	.	.
!	!	!LO:TUP:a:problem=klamra łukowa	!	!LO:TUP:b:problem=klamra łukowa	!	!	!	!	!	!	!	!	!	!	!	!	!	!	!	!	!	!LO:N:vis=8	!	!LO:N:vis=8	!	!LO:N:vis=8	!	!LO:N:vis=8	!	!	!	!	!	!	!	!	!	!	!
.	.	12B-\L]	.	12B-/L]	.	8c/	.	8c/	.	.	.	.	.	.	.	.	.	.	.	.	.	8.r	.	8.r	.	8.r	.	8.r	.	.	.	.	.	.	.	.	.	.	.
.	.	12A'\	.	12A'/	.	.	.	.	.	.	.	.	.	.	.	.	.	.	.	.	.	.	.	.	.	.	.	.	.	.	.	.	.	.	.	.	.	.	.
.	.	.	.	.	.	16r	.	16r	.	.	.	.	.	.	.	.	.	.	.	.	.	.	.	.	.	.	.	.	.	.	.	.	.	.	.	.	.	.	.
.	.	12G'\J	.	12G'/J	.	.	.	.	.	.	.	.	.	.	.	.	.	.	.	.	.	.	.	.	.	.	.	.	.	.	.	.	.	.	.	.	.	.	.
.	.	.	.	.	.	16c/	.	16cc\	.	.	.	.	.	.	.	.	.	.	.	.	.	16c/	f	16c/	f	16cc/	f	16cc/	f	.	.	.	.	.	.	.	.	.	.
=2	=2	=2	=2	=2	=2	=2	=2	=2	=2	=2	=2	=2	=2	=2	=2	=2	=2	=2	=2	=2	=2	=2	=2	=2	=2	=2	=2	=2	=2	=2	=2	=2	=2	=2	=2	=2	=2	=2	=2
*Xbrackettup	*	*	*	*	*	*	*	*	*	*	*	*	*	*	*	*	*	*	*	*Xbrackettup	*	*	*	*	*	*	*	*	*	*Xbrackettup	*	*	*	*	*	*	*	*	*
!LO:TUP:a:problem=klamra łukowa	!	!LO:TUP:a:problem=klamra łukowa	!	!LO:TUP:b:problem=klamra łukowa	!	!	!	!	!	!	!	!	!	!	!	!	!	!	!	!LO:TUP:b:problem=klamra łukowa	!	!	!	!	!	!	!	!	!	!LO:TUP:a:problem=klamra łukowa	!	!	!	!	!	!	!	!	!
12r	f	12r	.	12r	.	[4c/	.	[4cc\	.	1r	.	1r	.	1ryy	.	1ryy	.	4r	.	12r	f	[4c/	.	[4c/	.	[4cc/	.	[4cc/	.	12r	f	1ryy	.	1ryy	.	1ryy	.	1ryy	.
12B-'\L	.	12B-'\L	.	12B-'/L	.	.	.	.	.	.	.	.	.	.	.	.	.	.	.	12BB-'/L	.	.	.	.	.	.	.	.	.	12B-'\L	.	.	.	.	.	.	.	.	.
12A'\J	.	12A'\J	.	12A'/J	.	.	.	.	.	.	.	.	.	.	.	.	.	.	.	12AA'/J	.	.	.	.	.	.	.	.	.	12A'\J	.	.	.	.	.	.	.	.	.
*	*	*	*	*	*	*	*	*	*	*	*	*	*	*	*	*	*	*tremolo	*	*	*	*	*	*	*	*	*	*	*	*	*	*	*	*	*	*	*	*	*
!	!	!	!	!	!	!LO:TUP:b:problem=klamra łukowa	!	!LO:TUP:a:problem=klamra łukowa	!	!	!	!	!	!	!	!	!	!	!	!	!	!LO:TUP:b:problem=klamra łukowa	!	!LO:TUP:b:problem=klamra łukowa	!	!LO:TUP:b:problem=klamra łukowa	!	!LO:TUP:b:problem=klamra łukowa	!	!	!	!	!	!	!	!	!	!	!
[4B-\	.	[4B-\	.	[4B-/	.	12c/L]	.	12cc\L]	.	.	.	.	.	.	.	.	.	32GG/LLL	.	[4BB-/	.	(12c/L]	.	(12c/L]	.	(12cc/L]	.	(12cc/L]	.	[4B-\	.	.	.	.	.	.	.	.	.
.	.	.	.	.	.	.	.	.	.	.	.	.	.	.	.	.	.	32GG/	.	.	.	.	.	.	.	.	.	.	.	.	.	.	.	.	.	.	.	.	.
.	.	.	.	.	.	.	.	.	.	.	.	.	.	.	.	.	.	32GG/	.	.	.	.	.	.	.	.	.	.	.	.	.	.	.	.	.	.	.	.	.
.	.	.	.	.	.	12d/	.	12dd\	.	.	.	.	.	.	.	.	.	.	.	.	.	12d/)	.	12d/)	.	12dd/)	.	12dd/)	.	.	.	.	.	.	.	.	.	.	.
.	.	.	.	.	.	.	.	.	.	.	.	.	.	.	.	.	.	32GG/	.	.	.	.	.	.	.	.	.	.	.	.	.	.	.	.	.	.	.	.	.
.	.	.	.	.	.	.	.	.	.	.	.	.	.	.	.	.	.	32GG/	.	.	.	.	.	.	.	.	.	.	.	.	.	.	.	.	.	.	.	.	.
.	.	.	.	.	.	.	.	.	.	.	.	.	.	.	.	.	.	32GG/	.	.	.	.	.	.	.	.	.	.	.	.	.	.	.	.	.	.	.	.	.
.	.	.	.	.	.	24r	.	24r	.	.	.	.	.	.	.	.	.	.	.	.	.	24r	.	24r	.	24r	.	24r	.	.	.	.	.	.	.	.	.	.	.
.	.	.	.	.	.	.	.	.	.	.	.	.	.	.	.	.	.	32GG/	.	.	.	.	.	.	.	.	.	.	.	.	.	.	.	.	.	.	.	.	.
.	.	.	.	.	.	24c/Jk	.	24cc\Jk	.	.	.	.	.	.	.	.	.	.	.	.	.	24c/Jk	.	24c/Jk	.	24cc/Jk	.	24cc/Jk	.	.	.	.	.	.	.	.	.	.	.
.	.	.	.	.	.	.	.	.	.	.	.	.	.	.	.	.	.	32GG/JJJ	.	.	.	.	.	.	.	.	.	.	.	.	.	.	.	.	.	.	.	.	.
*	*	*	*	*	*	*	*	*	*	*	*	*	*	*	*	*	*	*Xtremolo	*	*	*	*	*	*	*	*	*	*	*	*	*	*	*	*	*	*	*	*	*
8B-\L]	.	8B-\L]	.	8B-/L]	.	[4c/	.	[4cc\	.	.	.	.	.	.	.	.	.	4C/	.	8BB-/L]	.	[4c/	.	[4c/	.	[4cc/	.	[4cc/	.	8B-\L]	.	.	.	.	.	.	.	.	.
[8B-\J	.	[8B-\J	.	[8B-/J	.	.	.	.	.	.	.	.	.	.	.	.	.	.	.	[8BB-/J	.	.	.	.	.	.	.	.	.	[8B-\J	.	.	.	.	.	.	.	.	.
!LO:TUP:a:problem=klamra łukowa	!	!LO:TUP:a:problem=klamra łukowa	!	!LO:TUP:b:problem=klamra łukowa	!	!	!	!	!	!	!	!	!	!	!	!	!	!	!	!LO:TUP:b:problem=klamra łukowa	!	!	!	!	!	!	!	!	!	!LO:TUP:a:problem=klamra łukowa	!	!	!	!	!	!	!	!	!
12B-\L]	.	12B-\L]	.	12B-/L]	.	8c/]	.	8cc\]	.	.	.	.	.	.	.	.	.	4r	.	12BB-/L]	.	8c/]	.	8c/]	.	8cc/]	.	8cc/]	.	12B-\L]	.	.	.	.	.	.	.	.	.
12A'\	.	12A'\	.	12A'/	.	.	.	.	.	.	.	.	.	.	.	.	.	.	.	12AA'/	.	.	.	.	.	.	.	.	.	12A'\	.	.	.	.	.	.	.	.	.
.	.	.	.	.	.	16r	.	16r	.	.	.	.	.	.	.	.	.	.	.	.	.	8r	.	8r	.	8r	.	8r	.	.	.	.	.	.	.	.	.	.	.
12G'\J	.	12G'\J	.	12G'/J	.	.	.	.	.	.	.	.	.	.	.	.	.	.	.	12GG'/J	.	.	.	.	.	.	.	.	.	12G'\J	.	.	.	.	.	.	.	.	.
.	.	.	.	.	.	16c/	.	16c/	.	.	.	.	.	.	.	.	.	.	.	.	.	.	.	.	.	.	.	.	.	.	.	.	.	.	.	.	.	.	.
=3	=3	=3	=3	=3	=3	=3	=3	=3	=3	=3	=3	=3	=3	=3	=3	=3	=3	=3	=3	=3	=3	=3	=3	=3	=3	=3	=3	=3	=3	=3	=3	=3	=3	=3	=3	=3	=3	=3	=3
!	!	!LO:TUP:a:problem=klamra łukowa	!	!LO:TUP:b:problem=klamra łukowa	!	!	!	!	!	!	!	!	!	!	!	!	!	!	!	!	!	!	!	!	!	!	!	!	!	!	!	!	!	!	!	!	!	!	!
2r	.	12r	.	12r	.	[4c/	.	[4c/	.	1r	.	1r	.	2r	.	1r	.	2r	.	2r	.	2r	.	2r	.	2r	.	2r	.	2r	.	4r	.	4r	.	1ryy	.	2r	.
.	.	12B-'\L	.	12B-'/L	.	.	.	.	.	.	.	.	.	.	.	.	.	.	.	.	.	.	.	.	.	.	.	.	.	.	.	.	.	.	.	.	.	.	.
.	.	12A'\J	.	12A'/J	.	.	.	.	.	.	.	.	.	.	.	.	.	.	.	.	.	.	.	.	.	.	.	.	.	.	.	.	.	.	.	.	.	.	.
!	!	!	!	!	!	!LO:TUP:b:problem=klamra łukowa	!	!LO:TUP:b:problem=klamra łukowa	!	!	!	!	!	!	!	!	!	!	!	!	!	!	!	!	!	!	!	!	!	!	!	!	!	!	!	!	!	!	!
.	.	[4B-\	.	[4B-/	.	12c/L]	.	12c/L]	.	.	.	.	.	.	.	.	.	.	.	.	.	.	.	.	.	.	.	.	.	.	.	8r	.	8r	.	.	.	.	.
.	.	.	.	.	.	12d/	.	12d/	.	.	.	.	.	.	.	.	.	.	.	.	.	.	.	.	.	.	.	.	.	.	.	.	.	.	.	.	.	.	.
.	.	.	.	.	.	.	.	.	.	.	.	.	.	.	.	.	.	.	.	.	.	.	.	.	.	.	.	.	.	.	.	16r	.	16r	.	.	.	.	.
.	.	.	.	.	.	24r	.	24r	.	.	.	.	.	.	.	.	.	.	.	.	.	.	.	.	.	.	.	.	.	.	.	.	.	.	.	.	.	.	.
.	.	.	.	.	.	.	.	.	.	.	.	.	.	.	.	.	.	.	.	.	.	.	.	.	.	.	.	.	.	.	.	16c/	.	16cc\	f	.	.	.	.
.	.	.	.	.	.	24c/Jk	.	24c/Jk	.	.	.	.	.	.	.	.	.	.	.	.	.	.	.	.	.	.	.	.	.	.	.	.	.	.	.	.	.	.	.
4r	.	8B-\L]	.	8B-/L]	.	(4c/	.	(<4c/	.	.	.	.	.	4r	.	.	.	4r	.	4r	.	4r	.	4r	.	4r	.	4r	.	4r	.	(4c/	.	(4cc\	.	.	.	4r	.
!	!	!	!	!	!	!	!	!	!	!	!	!	!	!	!	!	!	!	!	!	!	!	!	!	!	!	!	!	!	!	!	!	!	!	!	!	!	!LO:TX:a:i:t=due	!
.	.	(8B-\J	.	(8B-/J	.	.	.	.	.	.	.	.	.	.	.	.	.	.	.	.	.	.	.	.	.	.	.	.	.	.	.	.	.	.	.	.	.	.	.
*	*	*	*	*	*	*	*	*	*	*	*	*	*	*Xbrackettup	*	*	*	*Xbrackettup	*	*	*	*Xbrackettup	*	*Xbrackettup	*	*Xbrackettup	*	*Xbrackettup	*	*	*	*	*	*	*	*	*	*Xbrackettup	*
*	*	*	*	*	*	*	*	*	*	*	*	*	*	*	*	*	*	*Xtuplet	*	*	*	*	*	*	*	*	*	*	*	*	*	*	*	*	*	*	*	*	*
!LO:TUP:a:problem=klamra łukowa	!	!LO:TUP:a:problem=klamra łukowa	!	!LO:TUP:b:problem=klamra łukowa	!	!LO:TUP:b:problem=klamra łukowa	!	!LO:TUP:a:problem=klamra łukowa	!	!	!	!	!	!LO:TUP:a:problem=klamra łukowa	!	!	!	!	!	!LO:TUP:b:problem=klamra łukowa	!	!LO:TUP:b:problem=klamra łukowa	!	!LO:TUP:b:problem=klamra łukowa	!	!LO:TUP:b:problem=klamra łukowa	!	!LO:TUP:b:problem=klamra łukowa	!	!LO:TUP:a:problem=klamra łukowa	!	!LO:TUP:a:problem=klamra łukowa	!	!LO:TUP:a:problem=klamra łukowa	!	!	!	!LO:TUP:a:problem=klamra łukowa	!
12r	.	12A\L)	.	12A/L)	.	12c#X/L)	.	12c#X\L)	.	.	.	.	.	12r	.	.	.	12r	.	12r	.	12r	.	12r	.	12r	.	12r	.	12r	.	12c#X\L)	.	12cc#X\L)	.	.	.	12r	.
!	!	!	!	!	!	!	!	!	!	!	!	!	!	!	!	!	!	!	!	!	!	!	!	!	!	!	!	!	!LO:DY:rj	!	!	!	!	!	!	!	!	!	!
12A'\L	ff	12A'\	.	12A'/	.	12a 12e'/	ff <	12cc#X'\	ff <	.	.	.	.	12Rcc\L	.	.	.	12GGL/	.	12AA'/L	.	12A'/L	.	12A'/L	.	12e/L	.	12a'/L	ff	12A'\L	.	12cc#X 12a\	.	12aa'\	.	.	.	12ccc#X'\L	.
!	!	!	!	!	!	!	!	!	!	!	!	!	!	!	!	!	!	!	!	!	!	!	!	!	!LO:DY:rj	!	!	!	!	!	!LO:DY:rj	!	!LO:DY:rj	!	!LO:DY:rj	!	!	!	!LO:DY:rj
12G'\J	.	12G'\J	ff	12A'/J	ff <	12aJ 12e'/	.	12cc#'\J	.	.	.	.	.	12Rcc\J	.	.	.	12GGJ/	.	12GG'/J	.	12A'/J	.	12A'/J	ff	12e/J	.	12a'/J	.	12G'\J	ff	12cc#J 12a\	ff	12aa'\J	ff	.	.	12ccc#'\J	ff
=4	=4	=4	=4	=4	=4	=4	=4	=4	=4	=4	=4	=4	=4	=4	=4	=4	=4	=4	=4	=4	=4	=4	=4	=4	=4	=4	=4	=4	=4	=4	=4	=4	=4	=4	=4	=4	=4	=4	=4
*	*	*	*	*	*	*	*	*	*	*	*	*	*	*	*	*^	*	*	*	*	*	*	*	*	*	*^	*	*	*	*	*	*	*	*	*	*	*	*	*
!LO:TX:b:i:t=accelerando	!	!LO:TX:b:i:t=accelerando	!	!LO:TX:b:i:t=accelerando	!	!LO:TX:b:i:t=accelerando	!	!LO:TX:a:i:t=accelerando	!	!	!	!	!	!	!	!LO:TX:b:i:t=accel	!	!	!	!	!	!	!	!	!	!	!	!	!	!	!	!	!	!	!	!	!	!	!	!	!
4F^\	<	4F^\	<	4A^>/	.	4a 4d^>/	.	4dd^\	.	1r	.	1r	.	4Rcc'\	<	4r	4ryy	.	4C/	.	4FF'/	.	4A'/	.	4A'/	<	4d/	4ryy	.	4a'>/	<	4F'\	<	4dd 4a'\	<	4aa'\	<	1ryy	.	4ddd'\	<
!	!	!	!	!	!	!	!	!	!	!	!	!	!	!	!	!	!	!	!	!	!LO:TX:a:i:rj:t=accel	!	!LO:TX:a:i:rj:t=accel	!	!	!	!	!	!	!LO:TX:b:i:t=accel	!	!LO:TX:b:i:rj:t=accel	!	!LO:TX:b:i:rj:t=accel	!	!LO:TX:b:i:rj:t=accele	!	!	!	!LO:TX:a:i:rj:t=accelerando	!
4E^\	.	4E^\	.	4c#X 4A^>/	.	4a 4g^>/	.	4ee^\	.	.	.	.	.	4Rcc'\	.	4Ra/	4Ra\	ff	4GG/	.	4EE'/	.	4A'/	.	4c#X'/	.	4g/	4g\	.	4a'>/	.	4E'\	.	4ee 4a'\	.	4aa'\	.	.	.	4eee'\	.
4D^\	[	4D^\	.	4d 4A^>/	[	4a 4f^>/	.	4ff^\	[	.	.	.	.	4Rcc'\	[	4Ra/	4Ra\	.	4C/	.	4DD'/	.	4A'/	.	4d'/	[	4f/	2ryy	.	4a'>/	[	4D'\	[	4ff 4a'\	[	4aa'\	[	.	.	4fff'\	[
4r	.	4r	[	4r	.	4r	[	4r	.	.	.	.	.	4r	.	4r	4ryy	.	4r	.	4r	.	4r	.	4r	.	4r	.	.	4r	.	4r	.	4r	.	4r	.	.	.	4r	.
*	*	*	*	*	*	*	*	*	*	*	*	*	*	*	*	*v	*v	*	*	*	*	*	*	*	*	*	*v	*v	*	*	*	*	*	*	*	*	*	*	*	*	*
!!LO:PB:g=original
=5	=5	=5	=5	=5	=5	=5	=5	=5	=5	=5	=5	=5	=5	=5	=5	=5	=5	=5	=5	=5	=5	=5	=5	=5	=5	=5	=5	=5	=5	=5	=5	=5	=5	=5	=5	=5	=5	=5	=5
*	*	*	*	*	*	*	*	*	*	*	*	*^	*	*	*	*	*	*	*	*	*	*	*	*	*	*	*	*	*	*	*	*^	*	*	*	*	*	*	*
*2\right	*	*2\right	*	*tremolo	*	*tremolo	*	*tremolo	*	*	*	*	*	*	*	*	*	*	*	*	*	*	*	*	*	*	*	*	*	*	*	*	*	*	*	*	*	*	*	*	*
!	!	!	!	!	!	!	!	!	!	!	!	!	!	!	!	!	!	!	!	!	!	!LO:DY:rj	!	!	!	!LO:DY:rj	!	!	!	!LO:DY:rj	!	!LO:DY:rj	!	!	!LO:DY:rj	!	!LO:DY:rj	!	!	!	!
(2c\	.	(2c\	f	16A/LL	f	16f/LL	f	16ff\LL	f	4.c 4.A\	.	4.ff 4.f/	4.f\	Hej!	1ryy	.	1ryy	.	1r	.	4.C/	f	4.A/	.	4.c/	f	4.f/	.	4.ff\	f	4.A\	f	4.ff 4.f\	4.ryy	f	4.ff\	f	1r	.	1ryy	.
.	.	.	.	16A/	.	16f/	.	16ff\	.	.	.	.	.	.	.	.	.	.	.	.	.	.	.	.	.	.	.	.	.	.	.	.	.	.	.	.	.	.	.	.	.
.	.	.	.	16A/	.	16f/	.	16ff\	.	.	.	.	.	.	.	.	.	.	.	.	.	.	.	.	.	.	.	.	.	.	.	.	.	.	.	.	.	.	.	.	.
.	.	.	.	16A/JJ	.	16f/JJ	.	16ff\JJ	.	.	.	.	.	.	.	.	.	.	.	.	.	.	.	.	.	.	.	.	.	.	.	.	.	.	.	.	.	.	.	.	.
*	*	*	*	*Xtremolo	*	*Xtremolo	*	*Xtremolo	*	*	*	*	*	*	*	*	*	*	*	*	*	*	*	*	*	*	*	*	*	*	*	*	*	*	*	*	*	*	*	*	*
.	.	.	.	8A/	.	8f/	.	8ff\	.	.	.	.	.	.	.	.	.	.	.	.	.	.	.	.	.	.	.	.	.	.	.	.	.	.	.	.	.	.	.	.	.
.	.	.	.	8r	.	8r	.	8r	.	8c 8A\	.	8cc/	8f\	jak	.	.	.	.	.	.	8AA/	.	(8A/	.	(8f\	.	8f/	.	(8cc/	.	(8A\	.	8cc/	8cc\	.	(8cc\	.	.	.	.	.
!	!	!	!	!LO:N:vis=4	!	!	!	!	!	!	!	!	!	!	!	!	!	!	!	!	!	!	!	!	!	!	!	!	!	!	!	!	!	!	!	!	!	!	!	!	!
4C/)	.	4C/)	.	2r	.	2r	.	2r	.	8.c 8.G\	.	8.b- 8.f/	8.f\	Per-	.	.	.	.	.	.	8.GG/L	.	8.c/L)	.	8.c/L)	.	8.f/L	.	8.b-/L)	.	8.G\L)	.	8.b-/L	8.b-\L	.	8.b-\L)	.	.	.	.	.
.	.	.	.	.	.	.	.	.	.	16c 16B-\	.	16g/	16e\	-si-	.	.	.	.	.	.	16BB-/Jk	.	16c/Jk	.	16c/Jk	.	16e/Jk	.	16g/Jk	.	16BB-\Jk	.	16g/Jk	16g\Jk	.	16g\Jk	.	.	.	.	.
4r	.	4r	.	.	.	.	.	.	.	4c 4B-\	.	4g/	4e\	-da	.	.	.	.	.	.	4BB-/	.	4c/	.	4c/	.	4e/	.	4g/	.	4BB-/	.	4g/	4g\	.	4g/	.	.	.	.	.
=6	=6	=6	=6	=6	=6	=6	=6	=6	=6	=6	=6	=6	=6	=6	=6	=6	=6	=6	=6	=6	=6	=6	=6	=6	=6	=6	=6	=6	=6	=6	=6	=6	=6	=6	=6	=6	=6	=6	=6	=6	=6
1ryy	.	1ryy	.	1ryy	.	1ryy	.	1ryy	.	4.c 4.B-\	.	4.g/	4.e\	śród	1ryy	.	1ryy	.	1r	.	4.BB-/	.	4.c/	.	4.c/	.	4.e/	.	4.g/	.	4.BB-/	.	4.g/	4.g\	.	4.g/	.	1r	.	1ryy	.
.	.	.	.	.	.	.	.	.	.	8c 8B-\	.	8dd/	8e\	na-	.	.	.	.	.	.	8BB-/	.	8c/	.	8c/	.	8e/	.	8dd/	.	8B-\	.	8dd/	8dd\	.	8dd\	.	.	.	.	.
.	.	.	.	.	.	.	.	.	.	4c 4B-\	.	4dd/	4e\	-ro-	.	.	.	.	.	.	(4BB-/	.	4c/	.	4c/	.	4e/	.	4dd/	.	(4B-\	.	(4dd/	(4dd\	.	(4dd\	.	.	.	.	.
.	.	.	.	.	.	.	.	.	.	4c 4A\	.	4cc/	4f\	-dów	.	.	.	.	.	.	4AA/)	.	4c/	.	4c/	.	4f/	.	4cc/	.	4A\)	.	4cc/)	4cc\)	.	4cc\)	.	.	.	.	.
=7	=7	=7	=7	=7	=7	=7	=7	=7	=7	=7	=7	=7	=7	=7	=7	=7	=7	=7	=7	=7	=7	=7	=7	=7	=7	=7	=7	=7	=7	=7	=7	=7	=7	=7	=7	=7	=7	=7	=7	=7	=7
*	*	*	*	*	*	*	*	*	*	*^	*	*	*	*	*	*	*	*	*	*	*	*	*	*	*	*	*	*	*	*	*	*	*	*	*	*	*	*	*	*	*
2r	.	2r	.	2r	.	2r	.	2r	.	4c 4A\	2ryy	.	4dd 4f#X/	4f#\	Bla-	1ryy	.	1ryy	.	1r	.	4AA/	.	4c/	.	4c/	.	(4f#X/	.	(>4dd/	.	(4A\	.	(4dd/	(4dd\	.	(4dd\	.	1r	.	1ryy	.
.	.	.	.	.	.	.	.	.	.	8A 8F#X\	.	.	8cc 8d/	8d\	-skiem	.	.	.	.	.	.	8.FF#X/L	.	8.A/L	.	8.d/L	.	8.d/L)	.	8.cc/L)	.	8.F#X\L)	.	8.cc/L)	8.cc\L)	.	8.cc\L)	.	.	.	.	.
.	.	.	.	.	.	.	.	.	.	16r	.	.	16r	16ryy	.	.	.	.	.	.	.	.	.	.	.	.	.	.	.	.	.	.	.	.	.	.	.	.	.	.	.	.
.	.	.	.	.	.	.	.	.	.	16A 16F#\	.	.	16a/	16d\	od-	.	.	.	.	.	.	16FF#/Jk	.	16A/Jk	.	(16d/Jk	.	(16d/Jk	.	(16a/Jk	.	(16F#\Jk	.	16a/Jk	16a\Jk	.	(16a\Jk	.	.	.	.	.
4r	.	4r	.	4r	.	4r	.	4r	.	8G/	8G\	.	8cc/	8d\	-wie-	.	.	.	.	.	.	4GG/	.	4.d/	.	8a\L	.	8a/L	.	8cc/L	.	4G\	.	8cc/L	8cc\L	.	8cc\L	.	.	.	.	.
.	.	.	.	.	.	.	.	.	.	8G/	8G\	.	8b-/	8d\	-cznej	.	.	.	.	.	.	.	.	.	.	8g\	.	8g/	.	8b-/	.	.	.	8b-/	8b-\	.	8b-\	.	.	.	.	.
8r	.	8r	.	8r	.	8r	.	8r	.	8A/	8A\	.	8f#X/	8d\	świe-	.	.	.	.	.	.	8AA/L	.	.	.	8f#X\	.	8f#X/	.	8f#X/	.	8A\L	.	8f#X/	8f#\	.	8f#X\	.	.	.	.	.
8B-\	.	8B-\	.	8B-/	.	8d 8B-/	.	8g 8d/	.	8B-/	8B-\	.	8g/	8d\	-ci	.	.	.	.	.	.	8BB-/J	.	8d/	.	8d\J)	.	8g/J)	.	8g/J)	.	8B-\J)	.	8g/J	8g\J	.	8g\J)	.	.	.	.	.
*	*	*	*	*	*	*	*	*	*	*v	*v	*	*	*	*	*	*	*	*	*	*	*	*	*	*	*	*	*	*	*	*	*	*	*	*	*	*	*	*	*	*	*
=8	=8	=8	=8	=8	=8	=8	=8	=8	=8	=8	=8	=8	=8	=8	=8	=8	=8	=8	=8	=8	=8	=8	=8	=8	=8	=8	=8	=8	=8	=8	=8	=8	=8	=8	=8	=8	=8	=8	=8	=8	=8
*	*	*	*	*	*	*	*	*	*	*	*	*	*	*	*	*	*^	*	*	*	*	*	*	*	*	*	*	*	*	*	*	*	*	*	*	*	*	*	*	*	*
*	*	*	*	*	*	*	*	*	*	*2\right	*	*	*2\right	*	*	*	*	*	*	*	*	*	*	*	*	*	*	*	*	*	*	*2\right	*	*	*2\right	*	*2\right	*	*	*	*	*
!	!	!	!	!	!LO:DY:rj	!	!LO:DY:rj	!	!LO:DY:rj	!	!	!	!	!	!	!	!	!	!	!	!	!	!	!	!	!	!	!	!	!	!	!	!	!	!	!	!	!	!	!	!	!
8G\	.	8G\	.	4d 4G/	ff	4f 4G/	ff	4b- 4d^>/	ff	2d 2G\	.	2b-/	2fn\	chwa-	2r	.	2r	2ryy	.	2r	.	(2GG/	.	(2d/	.	(<2d/	.	(2fn/	.	(2b-/	.	(2G\	.	(2b-/	(2b-\	.	(2b-\	.	2ryy	.	2r	.
8r	.	8r	.	.	.	.	.	.	.	.	.	.	.	.	.	.	.	.	.	.	.	.	.	.	.	.	.	.	.	.	.	.	.	.	.	.	.	.	.	.	.	.
!LO:TUP:b:problem=klamra łukowa	!	!LO:TUP:a:problem=klamra łukowa	!LO:DY:rj	!	!	!	!	!	!	!	!	!	!	!	!	!	!	!	!	!	!	!	!	!	!	!	!	!	!	!	!	!	!	!	!	!	!	!	!	!	!	!
12G'\L	.	12GG'\L	f	4r	.	4r	.	4r	.	.	.	.	.	.	.	.	.	.	.	.	.	.	.	.	.	.	.	.	.	.	.	.	.	.	.	.	.	.	.	.	.	.
12g'\	.	12G'\	.	.	.	.	.	.	.	.	.	.	.	.	.	.	.	.	.	.	.	.	.	.	.	.	.	.	.	.	.	.	.	.	.	.	.	.	.	.	.	.
12G'\J	.	12GG'\J	.	.	.	.	.	.	.	.	.	.	.	.	.	.	.	.	.	.	.	.	.	.	.	.	.	.	.	.	.	.	.	.	.	.	.	.	.	.	.	.
(16c\LL	.	(16C/LL	.	4e 4c^\	.	4e 4c/	.	4e 4c^>/	.	4c 4C\	.	4e/	4e\	-ły,	4ryy	.	4r	4ryy	.	4r	.	4C/)	.	4c/)	.	4e\)	.	4e/)	.	4e/)	.	4C/)	.	4e/)	4e\)	.	4e/)	.	4ryy	.	4r	.
16C\JJ)	.	16CC/JJ)	.	.	.	.	.	.	.	.	.	.	.	.	.	.	.	.	.	.	.	.	.	.	.	.	.	.	.	.	.	.	.	.	.	.	.	.	.	.	.	.
!	!	!	!	!	!	!	!	!	!	!	!	!	!	!	!	!	!	!	!	!	!	!	!	!	!	!	!	!	!	!	!	!	!	!	!	!	!	!	!	!	!LO:TX:a:t=Fl	!
8r	.	8r	ff	.	ff	.	.	.	.	.	.	.	.	.	.	.	.	.	.	.	.	.	.	.	.	.	.	.	.	.	.	.	.	.	.	.	.	.	.	.	.	.
!LO:TUP:a:problem=klamra łukowa	!	!LO:TUP:b:problem=klamra łukowa	!	!LO:TUP:b:problem=klamra łukowa	!	!LO:TUP:b:problem=klamra łukowa	!	!LO:TUP:b:problem=klamra łukowa	!	!	!	!	!	!	!	!	!	!	!LO:DY:rj	!	!	!	!	!	!	!	!	!	!	!	!	!LO:TUP:a:problem=klamra łukowa	!	!	!	!LO:DY:rj	!	!	!	!	!	!LO:DY:rj
12B-'\L	.	12BB-'/L	.	12B-'/L	.	12B-'/L	.	12B-'/L	ff	4r	.	4r	4ryy	.	4Rcc\	.	4Ra/	4Ra\	f	4C'/	f	4r	.	4B-/	.	4g\	.	4c/	.	4cc/	.	12B-\L	.	4cc/	4cc\	ff	4cc\	.	4cc>\	.	4ccc/	ff
12A'\	.	12AA'/	.	12A'/	.	12A'/	.	12A'/	.	.	.	.	.	.	.	.	.	.	.	.	.	.	.	.	.	.	.	.	.	.	.	12A\	.	.	.	.	.	.	.	.	.	.
12G'\J	.	12GG'/J	.	12G'/J	.	12G'/J	.	12G'/J	.	.	.	.	.	.	.	.	.	.	.	.	.	.	.	.	.	.	.	.	.	.	.	12G\J	.	.	.	.	.	.	.	.	.	.
!!LO:PB:g=original
=9	=9	=9	=9	=9	=9	=9	=9	=9	=9	=9	=9	=9	=9	=9	=9	=9	=9	=9	=9	=9	=9	=9	=9	=9	=9	=9	=9	=9	=9	=9	=9	=9	=9	=9	=9	=9	=9	=9	=9	=9	=9	=9
*	*	*	*	*	*	*	*	*	*	*^	*	*	*	*	*^	*	*	*	*	*	*	*	*	*	*	*	*	*	*	*	*	*	*	*	*	*	*	*	*	*	*	*
!	!	!	!	!	!	!	!	!	!	!	!	!	!	!	!	!	!	!	!	!	!	!	!	!	!	!	!	!	!	!	!	!LO:N:n=2:vis=4	!	!	!	!	!	!	!	!	!	!	!	!
!	!	!	!	!	!	!	!	!	!	!	!	!	!	!	!	!	!	!	!	!	!	!LO:TX:a:t=Timp	!	!LO:TX:a:t=Tromb	!	!	!	!LO:TX:t=Corni:problem=odtąd na wspólnej pięciolinii	!	!	!	!LO:TX:t=Trombi:problem=odtąd na wspólnej pięciolinii	!	!	!	!	!	!	!	!	!	!	!	!
.	.	.	.	.	.	.	.	(8qA/	.	.	.	.	.	.	.	.	.	.	.	.	.	.	.	.	.	.	.	.	.	.	.	.	.	.	.	.	.	.	.	.	.	.	.	.
*	*	*	*	*tremolo	*	*tremolo	*	*tremolo	*	*	*	*	*	*	*	*	*	*	*	*	*	*	*	*	*	*	*	*	*	*	*	*	*	*	*	*	*	*	*	*	*	*	*	*
4F\	.	4FF/	.	16A/LL	.	16c/LL	.	16f/LL)	.	4c 4F^<\	4ryy	.	4ff^/	4a\	Jak	4Rcc/	4Rcc\	.	4Ra/	4Ra\	.	4C/	.	4.FF/	.	4.c>\	.	4.a 4.c/	.	4.f>\	.	4.ff 4.f/	.	4.F\	.	4.ff/	4.ff\	.	4.ff\	.	4.ff>\	.	4.fff 4.ff/	.
.	.	.	.	16A/	.	16c/	.	16f/	.	.	.	.	.	.	.	.	.	.	.	.	.	.	.	.	.	.	.	.	.	.	.	.	.	.	.	.	.	.	.	.	.	.	.	.
.	.	.	.	16A/	.	16c/	.	16f/	.	.	.	.	.	.	.	.	.	.	.	.	.	.	.	.	.	.	.	.	.	.	.	.	.	.	.	.	.	.	.	.	.	.	.	.
.	.	.	.	16A/JJ	.	16c/JJ	.	16f/JJ	.	.	.	.	.	.	.	.	.	.	.	.	.	.	.	.	.	.	.	.	.	.	.	.	.	.	.	.	.	.	.	.	.	.	.	.
*	*	*	*	*Xtremolo	*	*Xtremolo	*	*Xtremolo	*	*	*	*	*	*	*	*	*	*	*	*	*	*	*	*	*	*	*	*	*	*	*	*	*	*	*	*	*	*	*	*	*	*	*	*
4r	.	4r	.	8A/	.	8c/	.	8f/	.	8r	8ryy	.	8r	8ryy	.	4r	4ryy	.	4r	4ryy	.	4r	.	.	.	.	.	.	.	.	.	.	.	.	.	.	.	.	.	.	.	.	.	.
.	.	.	.	8r	.	8r	.	8r	.	8c/	8A\	.	8cc/	8f\	śród	.	.	.	.	.	.	.	.	8AA/	.	8c>\	.	8c/	.	8f>\	.	(8cc/	.	(8A\	.	(8cc/	(8cc\	.	(8cc\	.	(8cc>\	.	(8ccc/	.
2r	.	2r	.	2r	.	2r	.	2r	.	8.c/	8.G\	.	8.b-/	8.f\	Per-	2r	2ryy	.	2r	2ryy	.	2r	.	8.GG/L	.	8.c>\L	.	8.c/L	.	8.f>\L	.	8.b-/L)	.	8.G\L)	.	8.b-/L)	8.b-\L)	.	8.b-\L)	.	8.b->\L)	.	8.bb-/L)	.
.	.	.	.	.	.	.	.	.	.	16c/	16B-\	.	16g/	16e\	-si-	.	.	.	.	.	.	.	.	16BB-/Jk	.	16c>\Jk	.	16c/Jk	.	16d>\Jk	.	16g/Jk	.	16B-\Jk	.	16g/Jk	16g\Jk	.	16g\Jk	.	16g>\Jk	.	16gg/Jk	.
.	.	.	.	.	.	.	.	.	.	4c/	4B-\	.	4g/	4e\	-dy	.	.	.	.	.	.	.	.	4BB-/	.	4c>\	.	4c/	.	4e>\	.	4g/	.	4B-\	.	4g/	4g\	.	4g/	.	4g>\	.	4gg/	.
*	*	*	*	*	*	*	*	*	*	*	*	*	*	*	*	*v	*v	*	*	*	*	*	*	*	*	*	*	*	*	*	*	*	*	*	*	*	*	*	*	*	*	*	*	*
*	*	*	*	*	*	*	*	*	*	*	*	*	*	*	*	*	*	*v	*v	*	*	*	*	*	*	*	*	*	*	*	*	*	*	*	*	*	*	*	*	*	*	*	*
=10	=10	=10	=10	=10	=10	=10	=10	=10	=10	=10	=10	=10	=10	=10	=10	=10	=10	=10	=10	=10	=10	=10	=10	=10	=10	=10	=10	=10	=10	=10	=10	=10	=10	=10	=10	=10	=10	=10	=10	=10	=10	=10
1ryy	.	1ryy	.	1ryy	.	1ryy	.	1ryy	.	4.c#X/	4.A\	.	4.a/	4.e\	wiel-	1ryy	.	1ryy	.	1ryy	.	4.AA/	.	4.c#X>\	.	4.c#X/	.	4.e>\	.	4.a/	.	4.A\	.	4.a/	4.a\	.	4.a/	.	4.a>\	.	4.aa/	.
.	.	.	.	.	.	.	.	.	.	8c#/	8A\	.	8ee/	8g\	-kiej	.	.	.	.	.	.	8A\	.	8c#>\	.	8a/	.	8g>\	.	8ee/	.	8A\	.	8ee/	8ee\	.	8ee\	.	8ee>\	.	8eee/	.
.	.	.	.	.	.	.	.	.	.	4c#/	4A\	.	4ee/	4g\	gro-	.	.	.	.	.	.	4A\	.	4c#>\	.	4a/	.	(4g>\	.	(4ee/	.	(4A\	.	(4ee/	(4ee\	.	(4ee\	.	(4ee>\	.	(4eee/	.
.	.	.	.	.	.	.	.	.	.	8d 8D/	8D\	.	8dd/	8f\	-dów,	.	.	.	.	.	.	4D\	.	4d>\	.	4a/	.	4f>\)	.	4dd/)	.	4D\)	.	4dd/)	4dd\)	.	4dd\)	.	8.dd>\L)	.	8.ddd/L)	.
.	.	.	.	.	.	.	.	.	.	16r	16ryy	.	16r	16ryy	.	.	.	.	.	.	.	.	.	.	.	.	.	.	.	.	.	.	.	.	.	.	.	.	.	.	.	.
.	.	.	.	.	.	.	.	.	.	16d 16D/	16D\	.	16dd/	16f\	kró-	.	.	.	.	.	.	.	.	.	.	.	.	.	.	.	.	.	.	.	.	.	.	.	(16dd>\Jk	.	(>16ddd/Jk	.
=11	=11	=11	=11	=11	=11	=11	=11	=11	=11	=11	=11	=11	=11	=11	=11	=11	=11	=11	=11	=11	=11	=11	=11	=11	=11	=11	=11	=11	=11	=11	=11	=11	=11	=11	=11	=11	=11	=11	=11	=11	=11	=11
2r	.	2r	.	2r	.	2r	.	2r	.	4.e 4.G/	4.G\	.	4.cc/	4.e\	-lu-	1ryy	.	1ryy	.	1ryy	.	4.G\	.	4.g>\	.	4.g/	.	4.e>\	.	4.cc/	.	4.G\	.	4.cc/	4.cc\	.	4.cc\	.	4.cc>\Z)	.	4.ccc\)	.
.	.	.	.	.	.	.	.	.	.	8cn/	8G\	.	8g/	8e\	-je	.	.	.	.	.	.	8GG/	.	8cn>\	.	8cn/	.	(8e>\	.	(8g/	.	(8G\	.	(8g/	8g\	.	(8g/	.	8b->\	.	(8gg\	.
4r	.	4r	.	4r	.	4r	.	4r	.	8c/	8F\	.	8a/	8f\	Jhar-	.	.	.	.	.	.	4FF/	.	8c>\L	.	8c/L	.	8f>\L	.	8a/L	.	4F\)	.	8a/L	8a\L	.	8a\L	.	8a>\L	.	8aa\L	.
.	.	.	.	.	.	.	.	.	.	8d/	8F\	.	8bn/	8g\	-ny	.	.	.	.	.	.	.	.	8d>\	.	8d/	.	8g>\	.	8bX/	.	.	.	8bnX/	8bnX\	.	8bn\	.	8bn>\	.	8bbn\	.
8r	.	8r	.	8r	.	8r	.	8r	.	8c/	8E\	.	8cc/	8g\	gród	.	.	.	.	.	.	8EE/L	.	8c>\	.	8c/	.	8g>\)	.	8cc/)	.	8E\L	.	8cc/)	8cc\	.	8cc\)	.	8cc>\	.	8ccc\)	.
8D\	.	8D\	.	8D/	.	8a 8c/	.	8ff 8a\	.	8c/	8D\	.	8ff/	8a\	wspa-	.	.	.	.	.	.	8DD/J	.	8c>\J	.	8a/J	.	8a>\J	.	8cc/J	.	8D\J	.	8ff/J	8ff\J	.	8ff\J	.	8ff>\J	.	8fff'\J	.
=12	=12	=12	=12	=12	=12	=12	=12	=12	=12	=12	=12	=12	=12	=12	=12	=12	=12	=12	=12	=12	=12	=12	=12	=12	=12	=12	=12	=12	=12	=12	=12	=12	=12	=12	=12	=12	=12	=12	=12	=12	=12	=12
*	*	*	*	*	*	*	*	*	*	*	*	*	*	*	*	*^	*	*^	*	*	*	*	*	*	*	*	*	*	*	*	*	*	*	*	*	*	*	*	*	*	*	*
*	*	*	*	*	*	*	*	*	*	*	*	*	*	*	*	*	*	*	*	*	*	*tuplet	*	*	*	*2\right	*	*	*	*	*	*	*	*	*	*	*	*	*	*	*2\right	*	*2\right	*
8G\	.	8G\	.	4G^>/	.	4g 4Bn^>/	.	4dd 4f^\	.	2Bn/	2G\	.	2dd/	2f\	-nia-	4r	4ryy	.	4r	4ryy	.	4r	.	(2GG/	.	(2BX>\	.	(2g 2BX/	.	(2f>\	.	(2dd/	.	(2G\	.	(2dd/	(2dd\	.	(2dd\	.	(2dd>\	.	(2ddd\	.
8r	.	8r	f	.	.	.	.	.	.	.	.	.	.	.	.	.	.	.	.	.	.	.	.	.	.	.	.	.	.	.	.	.	.	.	.	.	.	.	.	.	.	.	.	.
!LO:TUP:a:problem=klamra łukowa	!	!LO:TUP:a:problem=klamra łukowa	!	!	!	!	!	!	!	!	!	!	!	!	!	!	!	!	!	!	!	!LO:TUP:b:problem=klamra łukowa	!	!	!	!	!	!	!	!	!	!	!	!	!	!	!	!	!	!	!	!	!	!
12G'\L	.	12GG'\L	.	4r	.	4r	.	4r	.	.	.	.	.	.	.	4Rcc/	4Rcc\	.	4Ra/	4Ra\	f	12r	.	.	.	.	.	.	.	.	.	.	.	.	.	.	.	.	.	.	.	.	.	.
12g'\	.	12G'\	.	.	.	.	.	.	.	.	.	.	.	.	.	.	.	.	.	.	.	12GG/L	f	.	.	.	.	.	.	.	.	.	.	.	.	.	.	.	.	.	.	.	.	.
12G'\J	.	12GG'\J	.	.	.	.	.	.	.	.	.	.	.	.	.	.	.	.	.	.	.	12GG/J	.	.	.	.	.	.	.	.	.	.	.	.	.	.	.	.	.	.	.	.	.	.
(16c\LL	.	(16C/LL	.	4G^>/	.	4g 4c^>/	.	4cc 4e^\	.	4c 4C/	4C\	.	4cc/	4e\	-ły...	4Rcc/	4Rcc\	.	4Ra/	4Ra\	.	4C/	.	4CC/)	.	4c>\)	.	4g 4c/)	.	4e>\)	.	4cc/)	.	4C/)	.	4cc/)	4cc\)	.	4cc\)	.	4cc>\)	.	4ccc\)	.
16C\JJ)	.	16CC/JJ)	.	.	.	.	.	.	.	.	.	.	.	.	.	.	.	.	.	.	.	.	.	.	.	.	.	.	.	.	.	.	.	.	.	.	.	.	.	.	.	.	.	.
8r	.	8r	.	.	.	.	.	.	.	.	.	.	.	.	.	.	.	.	.	.	.	.	.	.	.	.	.	.	.	.	.	.	.	.	.	.	.	.	.	.	.	.	.	.
!	!	!	!	!LO:TX:b:i:t=arco	!	!	!	!	!	!	!	!	!	!	!	!	!	!	!	!	!	!	!	!	!	!	!	!	!	!	!	!	!	!	!	!	!	!	!	!	!	!	!	!
4r	.	4r	.	8r	.	4r	.	4r	.	8r	8ryy	.	8r	8ryy	.	4r	4ryy	.	4r	4ryy	.	4r	.	4r	.	4ryy	.	4r	.	4ryy	.	4r	.	4r	.	8r	4ryy	p	4r	.	4ryy	.	4r	.
!	!	!	!	!LO:TX:a:i:t=con expres.\nSolo	!	!	!	!	!	!	!	!	!	!	!	!	!	!	!	!	!	!	!	!	!	!	!	!	!	!	!	!	!	!	!	!LO:TX:a:i:t=1° Solo con expres	!	!	!	!	!	!	!	!
.	.	.	.	8c\	p	.	.	.	.	8C/	8C\	.	8c/	8c\	więc	.	.	.	.	.	.	.	.	.	.	.	.	.	.	.	.	.	.	.	.	8c/	.	.	.	.	.	.	.	.
*	*	*	*	*	*	*	*	*	*	*	*	*	*	*	*	*	*	*	*v	*v	*	*	*	*	*	*	*	*	*	*	*	*	*	*	*	*	*	*	*	*	*	*	*	*
*	*	*	*	*	*	*	*	*	*	*	*	*	*	*	*	*v	*v	*	*	*	*	*	*	*	*	*	*	*	*	*	*	*	*	*	*	*	*	*	*	*	*	*	*
!!LO:PB:g=original
=13	=13	=13	=13	=13	=13	=13	=13	=13	=13	=13	=13	=13	=13	=13	=13	=13	=13	=13	=13	=13	=13	=13	=13	=13	=13	=13	=13	=13	=13	=13	=13	=13	=13	=13	=13	=13	=13	=13	=13	=13	=13	=13
!	!	!	!	!	!	!	!	!LO:TX:a:i:t=Meno mosso	!	!	!	!	!LO:TX:a:i:t=Meno mosso	!	!	!LO:TX:a:t=Triangolo solo	!	!	!	!	!	!	!	!LO:TX:a:t=2° Solo	!	!LO:TX:a:t=Corni	!	!	!	!LO:TX:a:t=Trombi	!	!	!	!	!	!	!	!	!	!	!	!
1ryy	.	1ryy	.	(4.g\	.	8r	.	8r	p	4.G/	4.G\	.	4.g/	4.g\	da-	2r	.	1ryy	.	1ryy	.	1ryy	.	4r	.	1ryy	.	1ryy	.	1ryy	.	2r	.	(4.g/	2r	.	1ryy	.	1ryy	.	1ryy	.
.	.	.	.	.	.	(8B-'/L	.	(8c'/L	.	.	.	.	.	.	.	.	.	.	.	.	.	.	.	.	p	.	.	.	.	.	.	.	.	.	.	.	.	.	.	.	.	.
.	.	.	.	.	.	8B-'/	.	8c'/	.	.	.	.	.	.	.	.	.	.	.	.	.	.	.	[2.C>/	.	.	.	.	.	.	.	.	.	.	.	.	.	.	.	.	.	.
.	.	.	.	8g#X\	.	8B-'/J)	.	8c'/J)	.	8G#X/	8G#\	.	8g#X/	8g#\	-lej	.	.	.	.	.	.	.	.	.	.	.	.	.	.	.	.	.	.	8g#X/	.	.	.	.	.	.	.	.
.	.	.	.	4a\	.	(8B-'/L	.	(8c'/L	.	4A/	4A\	.	4a/	4a\	wscho-	8r	.	.	.	.	.	.	.	.	.	.	.	.	.	.	.	4r	.	4a/	4r	.	.	.	.	.	.	.
!	!	!	!	!	!	!	!	!	!	!	!	!	!	!	!	!	!LO:DY:rj	!	!	!	!	!	!	!	!	!	!	!	!	!	!	!	!	!	!	!	!	!	!	!	!	!
.	.	.	.	.	.	8B-'/	.	8c'/	.	.	.	.	.	.	.	8Rcc\L	p	.	.	.	.	.	.	.	.	.	.	.	.	.	.	.	.	.	.	.	.	.	.	.	.	.
.	.	.	.	4e\	.	8B-'/	.	8c'/	.	4E/	4E\	.	4e/	4e\	-du	8Rcc\	.	.	.	.	.	.	.	.	.	.	.	.	.	.	.	8r	.	4c/	8r	p	.	.	.	.	.	.
!	!	!	!	!	!	!	!	!	!	!	!	!	!	!	!	!	!	!	!	!	!	!	!	!	!	!	!	!	!	!	!	!	!LO:DY:rj	!	!	!	!	!	!	!	!	!
.	.	.	.	.	.	8B-'/J)	.	8c'/J)	.	.	.	.	.	.	.	8Rcc\J	.	.	.	.	.	.	.	.	.	.	.	.	.	.	.	8B-\	p	.	8c\	.	.	.	.	.	.	.
=14	=14	=14	=14	=14	=14	=14	=14	=14	=14	=14	=14	=14	=14	=14	=14	=14	=14	=14	=14	=14	=14	=14	=14	=14	=14	=14	=14	=14	=14	=14	=14	=14	=14	=14	=14	=14	=14	=14	=14	=14	=14	=14
!	!	!	!	!	!	!	!	!	!	!	!	!	!	!	!	!	!	!	!	!	!	!	!	!	!	!	!	!	!	!	!	!	!	!	!	!	!	!	!LO:TX:a:t=Fl:color=dodgerblue	!	!	!
1ryy	.	8r	p	4.gn\	.	(8B-'/L	.	(8c'/L	.	4.Gn/	4.Gn\	.	4.gn/	4.gn\	per-	8Rcc\	.	1ryy	.	1ryy	.	1ryy	.	8C>/]	.	2r	.	1ryy	.	1ryy	.	(4.B-\	.	4.gn/	4.c\	.	2r	.	2r	.	2r	.
!	!	!LO:TX:a:i:t=Solo	!	!	!	!	!	!	!	!	!	!	!	!	!	!	!	!	!	!	!	!	!	!	!	!	!	!	!	!	!	!	!	!	!	!	!	!	!	!	!	!
.	.	[8FF/	.	.	.	8B-'/	.	8c'/	.	.	.	.	.	.	.	8r	.	.	.	.	.	.	.	8r>	.	.	.	.	.	.	.	.	.	.	.	.	.	.	.	.	.	.
.	.	(16FF/LL]	<	.	.	8B-'/	.	8c'/	.	.	.	.	.	.	.	4r	.	.	.	.	.	.	.	4r>	.	.	.	.	.	.	.	.	.	.	.	.	.	.	.	.	.	.
.	.	16GG/	.	.	.	.	.	.	.	.	.	.	.	.	.	.	.	.	.	.	.	.	.	.	.	.	.	.	.	.	.	.	.	.	.	.	.	.	.	.	.	.
.	.	16GG#X/	.	8f\	.	8A'/J)	.	8c'/J)	.	8F/	8F\	.	8f/	8f\	-ło	.	.	.	.	.	.	.	.	.	.	.	.	.	.	.	.	8A\)	.	8f/	8c\	.	.	.	.	.	.	.
.	.	16AA/JJ)	.	.	.	.	.	.	.	.	.	.	.	.	.	.	.	.	.	.	.	.	.	.	.	.	.	.	.	.	.	.	.	.	.	.	.	.	.	.	.	.
.	.	(16BBn/LL	.	4f\)	.	8A'/L	.	8c'/L	.	4F/	4F\	.	4f/	4f\	ty,	2r	.	.	.	.	.	.	.	2r>	.	8r	.	.	.	.	.	8A\	.	4f/)	8c\	.	8r	.	8r	.	8r	.
.	.	16C/JJ)	[	.	.	.	.	.	.	.	.	.	.	.	.	.	.	.	.	.	.	.	.	.	.	.	.	.	.	.	.	.	.	.	.	.	.	p	.	p	.	p
!	!	!	!	!	!	!	!	!	!	!	!	!	!	!	!	!	!	!	!	!	!	!	!	!	!	!LO:TX:a:t=1° Solo	!LO:DY:a:rj	!	!	!	!	!	!	!	!	!	!	!	!	!	!	!
.	.	8r	.	.	.	(8f/	.	(8a/	.	.	.	.	.	.	.	.	.	.	.	.	.	.	.	.	.	8c'</L	pp	.	.	.	.	8r	.	.	8r	.	8ff\	.	(8cc\L	.	(8aa\L	.
.	.	4r	.	8r	.	8B-/	.	8g/	.	8r	8ryy	.	8r	8ryy	.	.	.	.	.	.	.	.	.	.	.	8c'</	.	.	.	.	.	4r	.	8r	4r	.	[4cc\	.	8b-\	.	8gg\	.
.	.	.	.	8f\	.	8A/J)	.	8f/J)	.	8F/	8F\	.	8f/	8f\	od-	.	.	.	.	.	.	.	.	.	.	8c'</J	.	.	.	.	.	.	.	(8f/	.	.	.	.	8a\J)	.	8ff\J)	.
=15	=15	=15	=15	=15	=15	=15	=15	=15	=15	=15	=15	=15	=15	=15	=15	=15	=15	=15	=15	=15	=15	=15	=15	=15	=15	=15	=15	=15	=15	=15	=15	=15	=15	=15	=15	=15	=15	=15	=15	=15	=15	=15
1ryy	.	1ryy	.	(4.cc\	.	(8e-X'/L	.	(8f'/L	.	4.c/	4.c\	.	4.cc/	4.cc\	-świę-	2r	.	1ryy	.	1ryy	.	1ryy	.	4r	.	4f/	.	1ryy	.	1ryy	.	2r	.	4.cc/	2r	.	8cc\]	.	8a/	.	8f/	.
.	.	.	.	.	.	8e-'/	.	8f'/	.	.	.	.	.	.	.	.	.	.	.	.	.	.	.	.	p	.	.	.	.	.	.	.	.	.	.	.	8r	.	8r	.	8r	.
.	.	.	.	.	.	8e-'/	.	8f'/	.	.	.	.	.	.	.	.	.	.	.	.	.	.	.	[>2.F>/	.	4r	.	.	.	.	.	.	.	.	.	.	4r	.	4r	.	4r	.
.	.	.	.	8cc#X\	.	8e-'/J)	.	8f'/J)	.	8c#X/	8c#\	.	8cc#X/	8cc#\	-tne	.	.	.	.	.	.	.	.	.	.	.	.	.	.	.	.	.	.	8cc#X/	.	.	.	.	.	.	.	.
.	.	.	.	4dd\	.	(8e-'/L	.	(8f'/L	.	4d/	4d\	.	4dd/	4dd\	sza-	8r	.	.	.	.	.	.	.	.	.	2r	.	.	.	.	.	4r	.	4dd/	4r	.	2r	.	2r	.	2r	.
.	.	.	.	.	.	8e-'/	.	8f'/	.	.	.	.	.	.	.	8Rcc\L	p	.	.	.	.	.	.	.	.	.	.	.	.	.	.	.	.	.	.	.	.	.	.	.	.	.
.	.	.	.	4a\	.	8e-'/	.	8f'/	.	4A/	4A\	.	4a/	4a\	-ty	8Rcc\	.	.	.	.	.	.	.	.	.	.	.	.	.	.	.	8r	.	4a/	8r	p	.	.	.	.	.	.
!	!	!	!	!	!	!	!	!	!	!	!	!	!	!	!	!	!	!	!	!	!	!	!	!	!	!	!	!	!	!	!	!	!LO:DY:rj	!	!	!	!	!	!	!	!	!
.	.	.	.	.	.	8e-'/J)	.	8f'/J)	.	.	.	.	.	.	.	8Rcc\J	.	.	.	.	.	.	.	.	.	.	.	.	.	.	.	8e-X\	p	.	8f\	.	.	.	.	.	.	.
=16	=16	=16	=16	=16	=16	=16	=16	=16	=16	=16	=16	=16	=16	=16	=16	=16	=16	=16	=16	=16	=16	=16	=16	=16	=16	=16	=16	=16	=16	=16	=16	=16	=16	=16	=16	=16	=16	=16	=16	=16	=16	=16
!	!	!	!	!	!	!	!	!	!	!	!	!	!	!	!	!	!	!	!	!	!	!	!	!	!	!	!	!	!	!	!	!	!	!LO:N:vis=4	!	!	!	!	!	!	!	!
1ryy	.	8r	p	4.ccn\	.	(8e-X'/L	.	(8f'/L	.	4.cn/	4.cn\	.	4.ccn/	4.ccn\	swo-	8Rcc\	.	1ryy	.	1ryy	.	1ryy	.	8F>/]	.	2r	.	1ryy	.	1ryy	.	(4.e-X\	.	4.cc/	4.f\	.	2r	.	2r	.	2r	.
.	.	[8BB-/	.	.	.	8e-'/	.	8f'/	.	.	.	.	.	.	.	8r	.	.	.	.	.	.	.	8r>	.	.	.	.	.	.	.	.	.	.	.	.	.	.	.	.	.	.
.	.	(16BB-/LL]	<	.	.	8e-'/	.	8f'/	.	.	.	.	.	.	.	4r	.	.	.	.	.	.	.	4r>	.	.	.	.	.	.	.	.	.	.	.	.	.	.	.	.	.	.
.	.	16C/	.	.	.	.	.	.	.	.	.	.	.	.	.	.	.	.	.	.	.	.	.	.	.	.	.	.	.	.	.	.	.	.	.	.	.	.	.	.	.	.
.	.	16C#X/	.	8b-\	.	8d'/J)	.	8f'/J)	.	8B-/	8B-\	.	8b-/	8b-\	-je	.	.	.	.	.	.	.	.	.	.	.	.	.	.	.	.	8d\)	.	8b-/)	8f\	.	.	.	.	.	.	.
.	.	16D/JJ)	.	.	.	.	.	.	.	.	.	.	.	.	.	.	.	.	.	.	.	.	.	.	.	.	.	.	.	.	.	.	.	.	.	.	.	.	.	.	.	.
!	!	!	!	!	!	!	!	!	!	!	!	!	!	!	!	!	!	!	!	!	!	!	!	!	!	!	!LO:DY:a	!	!	!	!	!	!	!	!	!	!	!	!	!	!	!
.	.	(16E\LL	.	4b-\)	.	8d/L	.	8f'\L	.	4B-/	4B-\	.	4b-/	4b-\	wdziej,	2r	.	.	.	.	.	.	.	2r>	.	8r	pp	.	.	.	.	8d\	.	4b-/	8f\	.	8r	.	8r	.	8r	.
.	.	16F\JJ)	[	.	.	.	.	.	.	.	.	.	.	.	.	.	.	.	.	.	.	.	.	.	.	.	.	.	.	.	.	.	.	.	.	.	.	.	.	.	.	p
.	.	8r	.	.	.	(8f/	.	(8dd\	.	.	.	.	.	.	.	.	.	.	.	.	.	.	.	.	.	8f'</L	.	.	.	.	.	8r	.	.	8r	.	8bb-'\	.	(8ff\L	.	(8ddd\L	.
.	.	4r	.	4r	.	8e-/	.	8cc\	.	4r	4ryy	.	8r	8ryy	.	.	.	.	.	.	.	.	.	.	.	8f'</	.	.	.	.	.	4r	.	4rgg	4r	.	[4ff\	.	8ee-X\	.	8ccc\	.
.	.	.	.	.	.	8d/J)	.	8b-\J)	.	.	.	.	8b-/	8b-\	więc	.	.	.	.	.	.	.	.	.	.	8f'</J	.	.	.	.	.	.	.	.	.	.	.	.	8dd\J)	.	8bb-\J)	.
*	*	*	*	*	*	*	*	*	*	*	*	*	*	*	*	*	*	*	*	*	*	*	*	*	*	*	*	*	*	*	*	*	*	*v	*v	*	*	*	*	*	*	*
!!LO:PB:g=original
=17	=17	=17	=17	=17	=17	=17	=17	=17	=17	=17	=17	=17	=17	=17	=17	=17	=17	=17	=17	=17	=17	=17	=17	=17	=17	=17	=17	=17	=17	=17	=17	=17	=17	=17	=17	=17	=17	=17	=17	=17	=17
!	!	!	!	!	!	!	!	!LO:TX:a:i:t=Piu animato.	!	!	!	!	!LO:TX:a:i:t=piu animato.	!	!	!	!	!	!	!	!	!	!	!	!	!	!	!	!	!	!	!	!	!	!	!LO:TX:t=P:problem=brak zakończenia ligatury	!	!	!	!	!
1ryy	.	2r	.	2r	.	(4f/	.	(4a/	f	2r	2ryy	.	(4a/	(4a\	da-	1ryy	.	1ryy	.	1ryy	.	1ryy	.	1ryy	.	[>2d/	.	1ryy	.	1ryy	.	1ryy	.	2r	.	8ff\]	.	8dd\	.	8aa\	.
.	.	.	.	.	.	.	.	.	.	.	.	.	.	.	.	.	.	.	.	.	.	.	.	.	.	.	.	.	.	.	.	.	.	.	.	8r	.	8r	.	8r	.
.	.	.	.	.	.	8d/L)	.	8f/L)	.	.	.	.	8f/)	8f\)	.	.	.	.	.	.	.	.	.	.	.	.	.	.	.	.	.	.	.	.	.	4r	.	4r	.	4r	.
.	.	.	.	.	.	(8e/J	.	(<8g/J	.	.	.	.	8g/	8g\	-lej	.	.	.	.	.	.	.	.	.	.	.	.	.	.	.	.	.	.	.	.	.	.	.	.	.	.
.	.	4r	.	4r	.	8f/	.	8a/	.	4r	4ryy	.	(8a/	(8a\	wscho-	.	.	.	.	.	.	.	.	.	.	8d/]	.	.	.	.	.	.	.	8r	.	2r	.	2r	.	2r	.
!	!	!	!	!	!	!LO:N:vis=4.	!	!	!	!	!	!	!	!	!	!	!	!	!	!	!	!	!	!	!	!	!	!	!	!	!	!	!	!	!LO:DY:rj	!	!	!	!	!	!
.	.	.	.	.	.	4d/)	.	4dd\)	.	.	.	.	4dd/)	4d\)	.	.	.	.	.	.	.	.	.	.	.	8r	.	.	.	.	.	.	.	[4.dd [4.d\	p	.	.	.	.	.	.
.	.	8r	.	8r	.	.	.	.	.	8r	8ryy	.	.	.	.	.	.	.	.	.	.	.	.	.	.	4r	.	.	.	.	.	.	.	.	.	.	.	.	.	.	.
.	.	8G\	.	8B-/	f	8b-\	.	8b-\	.	8G/	8G\	więc	8b-/	8b-\	-du	.	.	.	.	.	.	.	.	.	.	.	.	.	.	.	.	.	.	.	.	.	.	.	.	.	.
=18	=18	=18	=18	=18	=18	=18	=18	=18	=18	=18	=18	=18	=18	=18	=18	=18	=18	=18	=18	=18	=18	=18	=18	=18	=18	=18	=18	=18	=18	=18	=18	=18	=18	=18	=18	=18	=18	=18	=18	=18	=18
1ryy	.	(4A\	.	(4c\	.	(4.a\	.	(4.a\	.	(4A/	(4A\	da-	4.a/	4.a\	per-	1ryy	.	1ryy	.	1ryy	.	1ryy	.	2ryy	.	2r	.	1ryy	.	1ryy	.	1ryy	.	2dd_ 2d\_	<	2r	.	8r	.	8r	.
.	.	.	.	.	.	.	.	.	.	.	.	.	.	.	.	.	.	.	.	.	.	.	.	.	.	.	.	.	.	.	.	.	.	.	.	.	.	[4.dd\	.	[4.ddd\	pp
.	.	8F\L)	.	8A\L)	.	.	.	.	.	8F/)	8F\)	.	.	.	.	.	.	.	.	.	.	.	.	.	.	.	.	.	.	.	.	.	.	.	.	.	.	.	.	.	.
.	.	(8G\J	.	(8B-\J	.	8b-\	.	8b-\	.	8G/	8G\	-lej	8b-/	8b-\	-ło	.	.	.	.	.	.	.	.	.	.	.	.	.	.	.	.	.	.	.	.	.	.	.	.	.	.
.	.	8A\	.	8c\	.	8a/)	.	8a\)	.	(8A/	(8A\	wscho-	8a/	8a\	ty,	.	.	.	.	.	.	.	.	8ryy	.	8r	.	.	.	.	.	.	.	8dd] 8d\]	[	4r	.	8dd\]	.	8ddd\]	.
.	.	4D\)	.	4f\)	.	8r	.	8r	.	4d/)	4D\)	.	8r	8ryy	.	.	.	.	.	.	.	.	.	[4.D>/	.	[4.d/	p	.	.	.	.	.	.	8r	.	.	.	8r	.	8r	.
.	.	.	.	.	.	8r	.	8r	.	.	.	.	8r	8ryy	.	.	.	.	.	.	.	.	.	.	.	.	.	.	.	.	.	.	.	4r	.	8r	.	4r	.	4r	.
.	.	8B-\	.	8d\	.	8g/	.	8g/	.	8B-/	8B-\	-du	8g/	8g\	od-	.	.	.	.	.	.	.	.	.	.	.	.	.	.	.	.	.	.	.	.	8g/	p	.	.	.	.
=19	=19	=19	=19	=19	=19	=19	=19	=19	=19	=19	=19	=19	=19	=19	=19	=19	=19	=19	=19	=19	=19	=19	=19	=19	=19	=19	=19	=19	=19	=19	=19	=19	=19	=19	=19	=19	=19	=19	=19	=19	=19
8r	.	(4.A\	.	(4.c\	.	(4a/	.	(4a/	p	4.A/	4.A\	per-	(4a/	(4a\	-świę-	1ryy	.	1ryy	.	1ryy	.	1ryy	.	2D>/_	.	2d/_	<	1ryy	.	1ryy	.	2r	.	2r	.	(4a/	.	1ryy	.	1ryy	.
[4.D/	p	.	.	.	.	.	.	.	.	.	.	.	.	.	.	.	.	.	.	.	.	.	.	.	.	.	.	.	.	.	.	.	.	.	.	.	.	.	.	.	.
.	.	.	.	.	.	8f/L)	.	8f/L)	.	.	.	.	8f/)	8f\)	.	.	.	.	.	.	.	.	.	.	.	.	.	.	.	.	.	.	.	.	.	8f/L)	.	.	.	.	.
.	.	8B-\	.	8d\	.	(8g/J	.	(8g/J	.	8B-/	8B-\	-ło	8g/	8g\	-tne	.	.	.	.	.	.	.	.	.	.	.	.	.	.	.	.	.	.	.	.	(<8g/J	.	.	.	.	.
8D/]	.	8A\)	.	8c\)	.	8a/	.	8a\	.	8A/	8A\	ty,	(8a/	(8a\	sza-	.	.	.	.	.	.	.	.	8D>/]	.	8d/]	.	.	.	.	.	4r	.	8r	.	8a/	.	.	.	.	.
8r	.	8r	.	8r	.	4d/)	.	4dd\)	.	8r	8ryy	.	4dd/)	4d\)	.	.	.	.	.	.	.	.	.	8ryy	.	8r	[	.	.	.	.	.	.	[4.dd [4.d\	.	4dd\)	.	.	.	.	.
4r	.	8r	.	8r	.	.	.	.	.	8r	8ryy	.	.	.	.	.	.	.	.	.	.	.	.	4ryy	.	4r	.	.	.	.	.	8r	.	.	p	.	.	.	.	.	.
.	.	8G\	.	8B-/	.	8b-\	.	8b-\	.	8G/	8G\	od-	8b-/	8b-\	-ty	.	.	.	.	.	.	.	.	.	.	.	.	.	.	.	.	8G\	p	.	.	8b-\	.	.	.	.	.
=20	=20	=20	=20	=20	=20	=20	=20	=20	=20	=20	=20	=20	=20	=20	=20	=20	=20	=20	=20	=20	=20	=20	=20	=20	=20	=20	=20	=20	=20	=20	=20	=20	=20	=20	=20	=20	=20	=20	=20	=20	=20
!	!	!	!	!	!LO:DY:rj	!	!	!	!	!	!	!	!	!	!	!	!	!	!	!	!	!	!	!	!	!	!	!	!	!	!	!	!	!	!	!	!	!	!	!	!
1ryy	.	(4A\	.	(<4c\	p	(4.a\	.	(4.a/	.	(4A/	(4A\	-świę-	4.a/	4.a\	swo-	1ryy	.	1ryy	.	1ryy	.	1ryy	.	2ryy	.	2r	.	1ryy	.	1ryy	.	(4A\	.	2dd_ 2d\_	<	(4.a/	.	8r	.	8r	.
.	.	.	.	.	.	.	.	.	.	.	.	.	.	.	.	.	.	.	.	.	.	.	.	.	.	.	.	.	.	.	.	.	.	.	.	.	.	[4.dd\	.	[4.ddd\	pp
.	.	8F\L)	.	8A/L)	.	.	.	.	.	8F/)	8F\)	.	.	.	.	.	.	.	.	.	.	.	.	.	.	.	.	.	.	.	.	8F\L)	.	.	.	.	.	.	.	.	.
.	.	(8G\J	.	(8B-/J	.	8b-\	.	8b-\	.	8G/	8G\	-tne	8b-/	8b-\	-je	.	.	.	.	.	.	.	.	.	.	.	.	.	.	.	.	(8G\J	.	.	.	8b-\	.	.	.	.	.
.	.	8A\	.	8c\	.	8a/)	.	8a/)	.	(8A/	(8A\	sza-	8a/	8a\	wdziej	.	.	.	.	.	.	.	.	8ryy	.	8r	.	.	.	.	.	8A\	.	8dd] 8d\]	[	8a/)	.	8dd\]	.	8ddd\]	.
.	.	4D\)	.	4f\)	.	8r	.	8r	.	4d/)	4D\)	.	8r	8ryy	.	.	.	.	.	.	.	.	.	(4.D>/	.	(4.d/	p	.	.	.	.	4d\)	.	8r	.	8r	.	8r	.	8r	.
.	.	.	.	.	.	8r	.	8r	.	.	.	.	8r	8ryy	.	.	.	.	.	.	.	.	.	.	.	.	.	.	.	.	.	.	.	8r	.	8r	.	4r	.	4r	.
.	.	8B-\	.	8d\	.	8g/	.	8g/	.	8B-/	8B-\	-ty	8g/	8g\	o	.	.	.	.	.	.	.	.	.	.	.	.	.	.	.	.	8B-\	.	8a\	.	8g/	.	.	.	.	.
!!LO:PB:g=original
=21	=21	=21	=21	=21	=21	=21	=21	=21	=21	=21	=21	=21	=21	=21	=21	=21	=21	=21	=21	=21	=21	=21	=21	=21	=21	=21	=21	=21	=21	=21	=21	=21	=21	=21	=21	=21	=21	=21	=21	=21	=21
*	*	*	*	*	*	*	*	*	*	*	*	*	*	*	*	*	*	*	*	*	*	*	*	*	*	*	*^	*	*	*	*	*	*	*^	*^	*	*	*	*	*	*
!	!	!	!	!	!	!	!	!	!	!	!	!	!	!	!	!	!	!	!	!	!	!	!	!	!	!LO:TX:t=P:problem=brak zakończenia łuku	!	!	!	!	!	!	!	!	!	!	!	!	!	!	!	!	!	!
!	!	!	!	!	!	!	!	!	!	!	!	!	!LO:TX:t=P:problem=na marginesie 1) 2) 3)	!	!	!	!	!	!	!	!	!	!	!LO:TX:t=P:problem=brak zakończenia łuku	!	!LO:TX:a:t=Cor	!LO:DY:rj	!	!	!	!LO:TX:a:t=Tr.	!	!	!	!	!	!	!	!	!	!	!	!	!
2r	.	(4.A\	.	(4.A/	.	2r	.	2r	.	4.A/	4.A\	swo-	[1ee [<1g	2r	Gha	1ryy	.	1ryy	.	2r	.	2r	.	[2C#X>\)	.	[1e)	p	<	2ryy	.	2r	.	(4.A\	.	2r	[1g	p	.	[1ee	p <	1ryy	.	1ryy	.
.	.	.	.	.	.	.	.	.	.	.	.	.	.	.	.	.	.	.	.	.	.	.	.	.	.	.	.	.	.	.	.	.	.	.	.	.	.	<	.	.	.	.	.	.
.	.	8B-\	.	8B-/	.	.	.	.	.	8B-/	8B-\	-je	.	.	.	.	.	.	.	.	.	.	.	.	.	.	.	.	.	.	.	.	8B-\	.	.	.	.	.	.	.	.	.	.	.
4r	.	4A\)	.	4A/)	.	4r	.	4r	.	8A/	8A\	wdziej	.	4r	.	.	.	.	.	4r	.	4r	.	4C#>\]	.	.	.	.	4ryy	.	4r	.	4A\)	.	4r	.	.	.	.	.	.	.	.	.
.	.	.	.	.	.	.	.	.	.	8r	8ryy	.	.	.	.	.	.	.	.	.	.	.	.	.	.	.	.	.	.	.	.	.	.	.	.	.	.	.	.	.	.	.	.	.
8r	.	8r	.	8r	.	8r	.	8r	.	8r	8ryy	.	.	8r	.	.	.	.	.	8r	.	8r	.	8r>	.	.	.	.	8ryy	.	8r	.	8r	.	8r	.	.	.	.	.	.	.	.	.
!	!	!	!	!	!	!	!	!	!	!	!	!	!	!	!	!	!	!	!	!	!	!	!	!	!	!	!	!	!	!	!	!LO:DY:rj	!	!	!	!	!LO:DY:a:rj	!	!	!	!	!	!	!
8A\	.	8A\	.	8a\	.	8a 8e/	f	8ee 8g\	f	8c#X/	8A\	o	.	8a/	o	.	.	.	.	8C/	.	8AA/	.	8c#X>\	.	.	f	.	8g>\	.	8ee/	f	8A\	f	8a/	.	f	.	.	.	.	.	.	.
.	.	.	.	.	.	.	.	.	.	.	.	.	.	.	.	.	.	.	.	.	f	.	f	.	.	.	.	.	.	.	.	.	.	.	.	.	.	.	.	.	.	.	.	.
*	*	*	*	*	*	*	*	*	*	*	*	*	*	*	*	*	*	*	*	*	*	*	*	*	*	*	*	*	*	*	*	*	*	*	*	*	*v	*v	*	*	*	*	*	*
=22	=22	=22	=22	=22	=22	=22	=22	=22	=22	=22	=22	=22	=22	=22	=22	=22	=22	=22	=22	=22	=22	=22	=22	=22	=22	=22	=22	=22	=22	=22	=22	=22	=22	=22	=22	=22	=22	=22	=22	=22	=22	=22	=22
*	*	*	*	*	*	*	*	*	*	*	*	*	*	*	*	*^	*	*^	*	*	*	*	*	*	*	*	*	*	*	*	*	*	*	*	*	*	*	*	*	*	*	*	*
*	*	*	*	*tremolo	*	*tremolo	*	*tremolo	*	*	*	*	*	*	*	*	*	*	*	*	*	*tremolo	*	*	*	*	*	*	*	*	*	*	*	*	*	*	*	*	*	*	*	*	*	*	*
*	*	*	*	*2\right	*	*	*	*	*	*	*	*	*	*	*	*	*	*	*	*	*	*	*	*	*	*	*	*	*	*	*	*	*	*	*	*	*	*	*	*	*	*	*	*	*
!	!	!	!	!	!LO:DY:rj	!	!	!	!	!	!	!	!	!	!	!	!	!	!	!	!	!	!	!	!	!	!LO:HP:a	!	!	!	!	!	!	!	!	!	!	!	!	!	!	!	!	!	!
8cn\Lyy	py	8cn\L	p	32b-\LLL	f <	32eeLLL 32e/	<	32eeLLL 32g/	.	2cn 2Cn/	2Cn\	Gha-	2ee] 2b- 2g/]	2g\	Gha-	2r	2ryy	.	2r	2ryy	.	32C/LLL	<	(2C/	<	[2c>\	<	(2e/]	.	.	(2g>/	.	(2ee/	<	8c\L	.	[2b-/	(2g\]	.	(2ee\]	.	2r	.	2r	.
.	.	.	.	32b-\	.	32ee 32e/	.	32ee 32g/	<	.	.	.	.	.	.	.	.	.	.	.	.	32C/	.	.	.	.	.	.	.	.	.	.	.	.	.	.	.	.	.	.	.	.	.	.	.
.	.	.	.	32b-\	.	32ee 32e/	.	32ee 32g/	.	.	.	.	.	.	.	.	.	.	.	.	.	32C/	.	.	.	.	.	.	.	.	.	.	.	.	.	.	.	.	.	.	.	.	.	.	.
.	.	.	.	32b-\	.	32ee 32e/	.	32ee 32g/	.	.	.	.	.	.	.	.	.	.	.	.	.	32C/	.	.	.	.	.	.	.	.	.	.	.	.	.	.	.	.	.	.	.	.	.	.	.
8C\yy	<	8C\	<	32b-\	.	32ee 32e/	.	32ee 32g/	.	.	.	.	.	.	.	.	.	.	.	.	.	32C/	.	.	.	.	.	.	.	.	.	.	.	.	8C\	<	.	.	.	.	.	.	.	.	.
.	.	.	.	32b-\	.	32ee 32e/	.	32ee 32g/	.	.	.	.	.	.	.	.	.	.	.	.	.	32C/	.	.	.	.	.	.	.	.	.	.	.	.	.	.	.	.	.	.	.	.	.	.	.
.	.	.	.	32b-\	.	32ee 32e/	.	32ee 32g/	.	.	.	.	.	.	.	.	.	.	.	.	.	32C/	.	.	.	.	.	.	.	.	.	.	.	.	.	.	.	.	.	.	.	.	.	.	.
.	.	.	.	32b-\	.	32ee 32e/	.	32ee 32g/	.	.	.	.	.	.	.	.	.	.	.	.	.	32C/	.	.	.	.	.	.	.	.	.	.	.	.	.	.	.	.	.	.	.	.	.	.	.
8C#X\yy	.	8C#X\	.	32b-\	.	32ee 32e/	.	32ee 32g/	.	.	.	.	.	.	.	.	.	.	.	.	.	32C/	.	.	.	.	.	.	.	.	.	.	.	.	8C#X\	.	.	.	.	.	.	.	.	.	.
.	.	.	.	32b-\	.	32ee 32e/	.	32ee 32g/	.	.	.	.	.	.	.	.	.	.	.	.	.	32C/	.	.	.	.	.	.	.	.	.	.	.	.	.	.	.	.	.	.	.	.	.	.	.
.	.	.	.	32b-\	.	32ee 32e/	.	32ee 32g/	.	.	.	.	.	.	.	.	.	.	.	.	.	32C/	.	.	.	.	.	.	.	.	.	.	.	.	.	.	.	.	.	.	.	.	.	.	.
.	.	.	.	32b-\	.	32ee 32e/	.	32ee 32g/	.	.	.	.	.	.	.	.	.	.	.	.	.	32C/	.	.	.	.	.	.	.	.	.	.	.	.	.	.	.	.	.	.	.	.	.	.	.
!	!	!	!	!	!	!	!	!	!	!	!	!	!	!	!	!	!	!	!	!	!	!	!	!	!	!	!	!	!	!	!	!	!	!	!LO:T:color=dodgerblue	!	!	!	!	!	!	!	!	!	!
[y8D\Jyy	.	[8D\J	.	32b-\	.	32ee 32e/	.	32ee 32g/	.	.	.	.	.	.	.	.	.	.	.	.	.	32C/	.	.	.	.	.	.	.	.	.	.	.	.	[8D\J	.	.	.	.	.	.	.	.	.	.
.	.	.	.	32b-\	.	32ee 32e/	.	32ee 32g/	.	.	.	.	.	.	.	.	.	.	.	.	.	32C/	.	.	.	.	.	.	.	.	.	.	.	.	.	.	.	.	.	.	.	.	.	.	.
.	.	.	.	32b-\	.	32ee 32e/	.	32ee 32g/	.	.	.	.	.	.	.	.	.	.	.	.	.	32C/	.	.	.	.	.	.	.	.	.	.	.	.	.	.	.	.	[	.	.	.	.	.	.
.	.	.	.	32b-\JJJ	.	32eeJJJ 32e/	.	32eeJJJ 32g/	.	.	.	.	.	.	.	.	.	.	.	.	.	32C/JJJ	.	.	.	.	.	.	.	.	.	.	.	.	.	.	.	.	.	.	.	.	.	.	.
*	*	*	*	*Xtremolo	*	*Xtremolo	*	*Xtremolo	*	*	*	*	*	*	*	*	*	*	*	*	*	*Xtremolo	*	*	*	*	*	*	*	*	*	*	*	*	*	*	*	*	*	*	*	*	*	*	*
8D\L]yy	.	8D\L]	.	4b-\	[	4dd 4f\	[	4dd 4f\	[	4c 4D/	4D\	-zno	4dd 4b- 4f/	4f\	-zno!	4r	4ryy	.	4r	4ryy	.	8C/	[	4D\)	[	4c>\]	[	4f/)	.	[	4f>/)	.	4dd/)	[	8D\L]	.	4b-/]	4f\)	.	4dd\)	[	4r	.	4r	.
8D\yy	.	8D\	.	.	.	.	.	.	.	.	.	.	.	.	.	.	.	.	.	.	.	8r	.	.	.	.	.	.	.	.	.	.	.	.	8D\	.	.	.	.	.	.	.	.	.	.
8D#X\yy	.	8D#X\	.	8r	.	8r	.	8r	.	8r	8ryy	.	8r	8ryy	.	8r	8ryy	.	8r	8ryy	.	8r	.	8r	.	8ryy	.	8r	.	.	8ryy	.	8r	.	8D#X\	.	8r	8ryy	.	8r	.	8r	.	8r	.
!	!	!	!	!	!	!	!	!	!	!	!	!	!	!	!	!	!	!	!	!	!	!	!	!	!LO:DY:rj	!	!	!	!	!	!	!	!	!LO:DY:rj	!	!	!	!	!LO:DY:rj	!	!	!	!LO:DY:rj	!	!
8E\Jyy	[[	8E\J	[[	8g\	f	8b- 8g\	.	8cc\	.	8c 8E/	8E\	.	8cc 8b-/	8g\	Od-	8Rcc/	8Rcc\	.	8Ra/	8Ra\	.	8C/	.	8E\	f	8c>\	.	8g/	f	.	8g>\	.	8cc/	f	8E\J	[	8b-/	8g\	f	8b-\	f	8cc\	f	8ccc\	f
*	*	*	*	*	*	*	*	*	*	*	*	*	*	*	*	*	*	*	*	*	*	*	*	*	*	*	*	*	*v	*v	*	*	*	*	*	*	*	*	*	*	*	*	*	*	*
=23	=23	=23	=23	=23	=23	=23	=23	=23	=23	=23	=23	=23	=23	=23	=23	=23	=23	=23	=23	=23	=23	=23	=23	=23	=23	=23	=23	=23	=23	=23	=23	=23	=23	=23	=23	=23	=23	=23	=23	=23	=23	=23	=23	=23
*	*	*	*	*tremolo	*	*tremolo	*	*tremolo	*	*	*	*	*	*	*	*	*	*	*	*	*	*	*	*	*	*	*	*	*	*	*	*	*	*	*	*	*	*	*	*	*	*	*	*
8.F\Lyy	.	8.F\L	.	16aLL 16c\	<	16ccLL 16f\	<	16ffLL 16a\	<	4.c 4.F/	4.F\	.	4.ff 4.a/	4.f\	-ſwię-	4Rcc/	4Rcc\	.	4Ra/	4Ra\	.	4C/	.	4.F\	.	2f>\	.	2f/	.	4.a>\	.	4.ff/	.	4.F\	.	4.a/	4.f\	.	4.a\	.	4.ff\	.	4.fff\	.
.	.	.	.	16a 16c\	.	16cc 16f\	.	16ff 16a\	.	.	.	.	.	.	.	.	.	.	.	.	.	.	.	.	.	.	.	.	.	.	.	.	.	.	.	.	.	.	.	.	.	.	.	.
.	.	.	.	16a 16c\	.	16cc 16f\	.	16ff 16a\	.	.	.	.	.	.	.	.	.	.	.	.	.	.	.	.	.	.	.	.	.	.	.	.	.	.	.	.	.	.	.	.	.	.	.	.
16AA\Jkyy	.	16AA\Jk	.	16aJJ 16c\	.	16ccJJ 16f\	.	16ffJJ 16a\	.	.	.	.	.	.	.	.	.	.	.	.	.	.	.	.	.	.	.	.	.	.	.	.	.	.	.	.	.	.	.	.	.	.	.	.
*	*	*	*	*Xtremolo	*	*Xtremolo	*	*Xtremolo	*	*	*	*	*	*	*	*	*	*	*	*	*	*	*	*	*	*	*	*	*	*	*	*	*	*	*	*	*	*	*	*	*	*	*	*
!LO:TUP:a:problem=klamra łukowa	!	!LO:TUP:a:problem=klamra łukowa	!	!	!	!	!	!	!	!	!	!	!	!	!	!	!	!	!	!	!	!	!	!	!	!	!	!	!	!	!	!	!	!	!	!	!	!	!	!	!	!	!	!
12C\Lyy	.	12C\L	.	8a 8c'<\	[	8cc 8f\	[	8ff 8a\	[	.	.	.	.	.	.	4r	4ryy	.	4r	4ryy	.	4r	.	.	.	.	.	.	.	.	.	.	.	.	.	.	.	.	.	.	.	.	.	.
12F\yy	.	12F\	.	.	.	.	.	.	.	.	.	.	.	.	.	.	.	.	.	.	.	.	.	.	.	.	.	.	.	.	.	.	.	.	.	.	.	.	.	.	.	.	.	.
.	.	.	.	8r	.	8r	.	8r	.	8c/	8A\	.	8cc/	8cc 8f\	-tne	.	.	.	.	.	.	.	.	8A\	.	.	.	.	.	8f>\	.	8cc/	.	8A\	.	8f/	8f\	.	8cc\	.	8ccc\	.	8ccc\	.
12A\Jyy	.	12A\J	.	.	.	.	.	.	.	.	.	.	.	.	.	.	.	.	.	.	.	.	.	.	.	.	.	.	.	.	.	.	.	.	.	.	.	.	.	.	.	.	.	.
8.G\Lyy	.	8.G\L	.	8.r	.	8.r	.	8.r	.	4c/	8.G\	.	(8.b-/	(8.f\	sza-	2r	2ryy	.	2r	2ryy	.	2r	.	8.G\L	.	2c>\	.	2c/	.	8.f>\L	.	8.b-/L	.	8.G\L	.	8.f/L	8.f\L	.	8.b-\L	.	8.bb-\L	.	8.bb-\L	.
!	!	!	!	!	!	!	!	!	!	!	!LO:N:vis=8	!	!	!	!	!	!	!	!	!	!	!	!	!	!	!	!	!	!	!	!	!	!	!	!	!	!	!	!	!	!	!	!	!
16c\Jkyy	.	16c\Jk	.	16c\	.	16c/	.	16c/	.	.	16B-\	.	16g/)	16e\)	.	.	.	.	.	.	.	.	.	16B-\Jk	.	.	.	.	.	16e>\Jk	.	16g/Jk	.	16c\Jk	.	16g/Jk	16e\Jk	.	16g\Jk	.	16gg\Jk	.	16gg\Jk	.
8c'\Lyy	.	8c'\L	.	8c'\L	.	8c'/L	.	8c'/L	.	4c/	4B-\	.	4g/	4e\	-ty	.	.	.	.	.	.	.	.	4B-\	.	.	.	.	.	4e>\	.	4g 4e/	.	8c\L	.	4g/	4e\	.	4g/	.	4gg\	.	4gg\	.
8B-'\Jyy	.	8B-'\J	.	8B-'\J	.	8B-'/J	.	8B-'/J	.	.	.	.	.	.	.	.	.	.	.	.	.	.	.	.	.	.	.	.	.	.	.	.	.	8B-\J	.	.	.	.	.	.	.	.	.	.
*	*	*	*	*	*	*	*	*	*	*	*	*	*	*	*	*v	*v	*	*	*	*	*	*	*	*	*	*	*	*	*	*	*	*	*	*	*	*	*	*	*	*	*	*	*
*	*	*	*	*	*	*	*	*	*	*	*	*	*	*	*	*	*	*v	*v	*	*	*	*	*	*	*	*	*	*	*	*	*	*	*	*	*	*	*	*	*	*	*	*
=24	=24	=24	=24	=24	=24	=24	=24	=24	=24	=24	=24	=24	=24	=24	=24	=24	=24	=24	=24	=24	=24	=24	=24	=24	=24	=24	=24	=24	=24	=24	=24	=24	=24	=24	=24	=24	=24	=24	=24	=24	=24	=24
8B-'\Lyy	.	8B-'\L	.	4B-'\	.	4B-'/	.	4B-'/	.	4.c/	4.B-\	.	4.g/	4.e\	swo-	1r	.	1r	.	1r	.	4.B-\	.	[>1c>	.	1c^	.	4.e>\	.	4.g 4.e/	.	4.B-\	.	4.g/	4.e\	.	4.g/	.	4.gg\	.	4.gg\	.
8BB-\yy	.	8BB-\	.	.	.	.	.	.	.	.	.	.	.	.	.	.	.	.	.	.	.	.	.	.	.	.	.	.	.	.	.	.	.	.	.	.	.	.	.	.	.	.
8E\yy	.	8E\	.	8r	.	8r	.	8r	.	.	.	.	.	.	.	.	.	.	.	.	.	.	.	.	.	.	.	.	.	.	.	.	.	.	.	.	.	.	.	.	.	.
8G\Jyy	.	8G\J	.	8c'\	.	8e'/	.	8dd'\	.	8c/	8B-\	.	8dd/	8e\	-je	.	.	.	.	.	.	8BB-\	.	.	.	.	.	8c>\	.	8g/	.	8B-\	.	8e/	8c\	.	8g/	.	8dd\	.	8ddd\	.
8B-\Lyy	.	8B-\L	.	4c^\	.	4e^>/	.	4dd^\	.	2c/	(4B-\	.	(4dd/	(4e\	wdziej,	.	.	.	.	.	.	4BB-\	.	.	.	.	.	4c>\	.	4g 4c/	.	4B-\	.	4e/	[2c\	.	4g/	.	4dd\	.	4ddd\	.
8BB-\yy	.	8BB-\	.	.	.	.	.	.	.	.	.	.	.	.	.	.	.	.	.	.	.	.	.	.	.	.	.	.	.	.	.	.	.	.	.	.	.	.	.	.	.	.
8A\yy	.	8A\	.	4c^\	.	4f^>/	.	4cc^\	.	.	4A\)	.	4cc/)	4f\)	.	.	.	.	.	.	.	4AA\	.	.	.	.	.	4f>\	.	4a 4f/	.	4A\	.	4f/	.	.	4a/	.	4cc\	.	4ccc\	.
8AA\Jyy	.	8AA\J	.	.	.	.	.	.	.	.	.	.	.	.	.	.	.	.	.	.	.	.	.	.	.	.	.	.	.	.	.	.	.	.	.	.	.	.	.	.	.	.
!!LO:PB:g=original
=25	=25	=25	=25	=25	=25	=25	=25	=25	=25	=25	=25	=25	=25	=25	=25	=25	=25	=25	=25	=25	=25	=25	=25	=25	=25	=25	=25	=25	=25	=25	=25	=25	=25	=25	=25	=25	=25	=25	=25	=25	=25	=25
!	!	!	!	!	!	!	!	!	!	!	!	!	!	!	!	!	!	!	!	!	!	!	!	!LO:TX:t=P:problem=koniec ligatury na dole	!	!	!	!	!	!	!	!	!	!	!	!	!	!	!	!	!	!
*	*	*	*	*tremolo	*	*tremolo	*	*tremolo	*	*	*	*	*	*	*	*	*	*	*	*	*	*	*	*	*	*	*	*	*	*	*	*	*	*	*	*	*	*	*	*	*	*
8A\Lyy	.	8A\L	.	16c\LL	.	16f#X/LL	.	16dd\LL	.	4c/	4A\	.	4dd/	4f#X\	Rzuć	1r	.	1r	.	1r	.	(4A\	.	(4c>\]	.	(4d/	.	(4f#X>\	.	4a 4f#X/	.	(4A\	.	(4f#X/	(2c\]	.	4a/	.	(4dd\	.	(4ddd\	.
.	.	.	.	16c\	.	16f#/	.	16dd\	.	.	.	.	.	.	.	.	.	.	.	.	.	.	.	.	.	.	.	.	.	.	.	.	.	.	.	.	.	.	.	.	.	.
8D\yy	.	8D\	.	16c\	.	16f#/	.	16dd\	.	.	.	.	.	.	.	.	.	.	.	.	.	.	.	.	.	.	.	.	.	.	.	.	.	.	.	.	.	.	.	.	.	.
.	.	.	.	16c\JJ	.	16f#/JJ	.	16dd\JJ	.	.	.	.	.	.	.	.	.	.	.	.	.	.	.	.	.	.	.	.	.	.	.	.	.	.	.	.	.	.	.	.	.	.
*	*	*	*	*Xtremolo	*	*Xtremolo	*	*Xtremolo	*	*	*	*	*	*	*	*	*	*	*	*	*	*	*	*	*	*	*	*	*	*	*	*	*	*	*	*	*	*	*	*	*	*
8F#X\yy	.	8F#X\	.	8A/	.	8d/	.	8cc\	.	8.A/	8.F#X\	.	8.cc/	8.d\	wszel-	.	.	.	.	.	.	8.F#X\L)	.	8.A>\L)	.	8.a/L)	.	8.d>\L)	.	8.a/L	.	8.F#X\L)	.	8.a/L)	.	.	8.a/L	.	8.cc\L)	.	8.ccc\L)	.
8D\Jyy	.	8D\J	.	8r	.	8r	.	8r	.	.	.	.	.	.	.	.	.	.	.	.	.	.	.	.	.	.	.	.	.	.	.	.	.	.	.	.	.	.	.	.	.	.
.	.	.	.	.	.	.	.	.	.	16A/	16F#\	.	16a/	16d\	-ki	.	.	.	.	.	.	16F#\Jk	.	16A>\Jk	.	16a/Jk	.	16f#>\Jk	.	16a/Jk	.	16F#\Jk	.	16f#/Jk	.	.	16a/Jk	.	16a\Jk	.	16aa\Jk	.
8G\Lyy	.	8G\L	.	8r	.	8r	.	8r	.	8G/	8G\	.	8cc/	8d\	smu-	.	.	.	.	.	.	8G\L	.	8d>\L	.	8d/L	.	8d>\	.	8cc/L	.	4G\	.	4d/	8c\L)	.	8cc\L	.	8cc\L	.	8ccc\L	.
8GG\yy	.	8GG\	.	8G/L	.	8G/L	.	8G/L	.	8G/	8G\	.	8b-/	8d\	-tem	.	.	.	.	.	.	8GG\	.	8d>\	.	8d/	.	8r>	.	8b-/	.	.	.	.	8B-\	.	8b-\	.	8b-\	.	8bb-\	.
8AA\yy	.	8AA\	.	8A/	.	8A/	.	8A/	.	8A/	8A\	.	8f#X/	8d\	swój	.	.	.	.	.	.	8AA\	.	8d>\	.	8d/	.	4r>	.	8f#X/	.	8A\L	.	8f#/L	8A\	.	8f#X\	.	8ff#X\	.	8ff#X\	.
8BB-\Jyy	.	8BB-\J	.	8B-/J	.	8B-/J	.	8B-/J	.	8B-/	8B-\	.	8g/	8d\	i	.	.	.	.	.	.	8BB-\J	.	8d>\J	.	8d/J	.	.	.	8g/J	.	8B-\J	.	8g/J	8B-\J	.	8g\J	.	8gg\J	.	8gg\J	.
=26	=26	=26	=26	=26	=26	=26	=26	=26	=26	=26	=26	=26	=26	=26	=26	=26	=26	=26	=26	=26	=26	=26	=26	=26	=26	=26	=26	=26	=26	=26	=26	=26	=26	=26	=26	=26	=26	=26	=26	=26	=26	=26
*	*	*	*	*	*	*	*	*	*	*	*	*	*	*	*	*^	*	*^	*	*	*	*	*	*	*	*	*	*	*	*	*	*	*	*	*	*	*	*	*	*	*	*
*	*	*	*	*	*	*	*	*	*	*	*	*	*	*	*	*	*	*	*	*	*	*	*	*2\right	*	*	*	*	*	*	*	*	*	*	*	*	*	*	*	*	*	*	*	*
8G\	.	8G\	.	8G/	.	8G/	.	8G/	.	(2d (2G/	2G\	.	(2b-/	(2fn\	łzy	4r	4ryy	.	4r	4ryy	.	4r	.	(2G\	.	(2d>\	.	(2d/	.	(2d>\	.	[2b-/	.	(2G\	.	(2fn/	(2d\	.	(2fn/	.	(2bb-\	.	(2bb-\	.
8r	.	8r	.	8r	.	8r	.	8r	.	.	.	.	.	.	.	.	.	.	.	.	.	.	.	.	.	.	.	.	.	.	.	.	.	.	.	.	.	.	.	.	.	.	.	.
*	*	*	*	*	*	*	*	*	*	*	*	*	*	*	*	*tremolo	*tremolo	*	*	*	*	*tremolo	*	*	*	*	*	*	*	*	*	*	*	*	*	*	*	*	*	*	*	*	*	*
!LO:TUP:a:problem=klamra łukowa	!	!LO:TUP:a:problem=klamra łukowa	!	!	!	!	!	!	!	!	!	!	!	!	!	!	!	!	!	!	!	!	!	!	!	!	!	!	!	!	!	!	!	!	!	!	!	!	!	!	!	!	!	!
12G\L	.	12GG\L	.	4r	.	4r	.	4r	.	.	.	.	.	.	.	16Rcc/LL	16Rcc\LL	.	4Ra/	4Ra\	.	16GG/LL	.	.	.	.	.	.	.	.	.	.	.	.	.	.	.	.	.	.	.	.	.	.
.	.	.	.	.	.	.	.	.	.	.	.	.	.	.	.	16Rcc/	16Rcc\	.	.	.	.	16GG/	.	.	.	.	.	.	.	.	.	.	.	.	.	.	.	.	.	.	.	.	.	.
12g\	.	12G\	.	.	.	.	.	.	.	.	.	.	.	.	.	.	.	.	.	.	.	.	.	.	.	.	.	.	.	.	.	.	.	.	.	.	.	.	.	.	.	.	.	.
.	.	.	.	.	.	.	.	.	.	.	.	.	.	.	.	16Rcc/	16Rcc\	.	.	.	.	16GG/	.	.	.	.	.	.	.	.	.	.	.	.	.	.	.	.	.	.	.	.	.	.
12G\J	.	12GG\J	.	.	.	.	.	.	.	.	.	.	.	.	.	.	.	.	.	.	.	.	.	.	.	.	.	.	.	.	.	.	.	.	.	.	.	.	.	.	.	.	.	.
.	.	.	.	.	.	.	.	.	.	.	.	.	.	.	.	16Rcc/JJ	16Rcc\JJ	.	.	.	.	16GG/JJ	.	.	.	.	.	.	.	.	.	.	.	.	.	.	.	.	.	.	.	.	.	.
*	*	*	*	*	*	*	*	*	*	*	*	*	*	*	*	*Xtremolo	*Xtremolo	*	*	*	*	*Xtremolo	*	*	*	*	*	*	*	*	*	*	*	*	*	*	*	*	*	*	*	*	*	*
!	!	!	!	!	!	!	!	!	!	!	!	!	!	!	!	!	!	!	!	!	!	!	!	!LO:N:vis=4	!	!	!	!	!	!	!	!	!	!	!	!	!	!	!	!	!	!	!	!
(16c\LL	.	(16C/LL	.	4r	.	4r	.	4r	.	4c 4C\))	4ryy	.	4e/)	4e\)	.	8Rcc/	8Rcc\	.	8Ra/	8Ra\	.	8C/	.	8C/)	.	4c>\)	.	4e/)	.	4c>\)	.	4b-/]	.	4C/)	.	4e/)	4c\)	.	4e/)	.	4ee\)	.	4ee\)	.
16C\JJ)	.	16CC/JJ)	.	.	.	.	.	.	.	.	.	.	.	.	.	.	.	.	.	.	.	.	.	.	.	.	.	.	.	.	.	.	.	.	.	.	.	.	.	.	.	.	.	.
8r	.	8r	.	.	.	.	.	.	.	.	.	.	.	.	.	8r	8ryy	.	8r	8ryy	.	8r	.	8r	.	.	.	.	.	.	.	.	.	.	.	.	.	.	.	.	.	.	.	.
!LO:TUP:a:problem=klamra łukowa	!	!LO:TUP:a:problem=klamra łukowa	!	!	!	!	!	!	!	!	!	!	!	!	!	!	!	!	!	!	!	!	!	!LO:TUP:a:problem=klamra łukowa	!	!	!	!	!	!	!	!	!	!LO:TUP:a:problem=klamra łukowa	!	!	!	!	!	!	!	!	!	!
12B-\L	.	12B-\L	.	8r	.	8r	.	8r	.	8r	8ryy	.	8r	8ryy	.	4r	4ryy	.	4r	4ryy	.	8r	.	12B-\L	.	8ryy	.	8r	.	8ryy	.	8r	.	12B-\L	.	8r	8ryy	.	8r	.	8r	.	8r	.
12A\	.	12A\	.	.	.	.	.	.	.	.	.	.	.	.	.	.	.	.	.	.	.	.	.	12A\	.	.	.	.	.	.	.	.	.	12A\	.	.	.	.	.	.	.	.	.	.
.	.	.	.	8c\	f	8cc 8e\	f	8cc\	f	8c/	8B-\	.	8cc/	8e\	Na	.	.	.	.	.	.	8C/	.	.	.	8c>\	.	8c/	.	8cc>\	.	8cc/	.	.	.	8cc/	8e\	.	8g/	.	8cc\	.	8ccc\	.
12G\J	.	12G\J	.	.	.	.	.	.	.	.	.	.	.	.	.	.	.	.	.	.	.	.	.	12G\J	.	.	.	.	.	.	.	.	.	12G\J	.	.	.	.	.	.	.	.	.	.
*	*	*	*	*	*	*	*	*	*	*	*	*	*	*	*	*v	*v	*	*	*	*	*	*	*	*	*	*	*	*	*	*	*	*	*	*	*	*	*	*	*	*	*	*	*
*	*	*	*	*	*	*	*	*	*	*	*	*	*	*	*	*	*	*v	*v	*	*	*	*	*	*	*	*	*	*	*	*	*	*	*	*	*	*	*	*	*	*	*	*
=27	=27	=27	=27	=27	=27	=27	=27	=27	=27	=27	=27	=27	=27	=27	=27	=27	=27	=27	=27	=27	=27	=27	=27	=27	=27	=27	=27	=27	=27	=27	=27	=27	=27	=27	=27	=27	=27	=27	=27	=27	=27	=27
*	*	*	*	*tremolo	*	*tremolo	*	*tremolo	*	*	*	*	*	*	*	*	*	*	*	*	*	*	*	*	*	*	*	*	*	*	*	*	*	*	*	*	*	*	*	*	*	*
8.A\Lyy	.	8.A\L	.	16c\LL	<	16ccLL 16f\	<	16ffLL 16a\	<	4.c 4.A/	4.A\	.	4.ff/	4.f\	u-	1ryy	.	1ryy	.	4C/	.	(2A\	.	[2c>\	.	(2f 2c/	.	4.f>\	.	4.ff 4.f/	.	(2A\	.	4.cc 4.f/	4.f\	.	4.f/	.	4.ff\	.	4.fff\	.
.	.	.	.	16c\	.	16cc 16f\	.	16ff 16a\	.	.	.	.	.	.	.	.	.	.	.	.	.	.	.	.	.	.	.	.	.	.	.	.	.	.	.	.	.	.	.	.	.	.
.	.	.	.	16c\	.	16cc 16f\	.	16ff 16a\	.	.	.	.	.	.	.	.	.	.	.	.	.	.	.	.	.	.	.	.	.	.	.	.	.	.	.	.	.	.	.	.	.	.
16AA\Jkyy	.	16AA\Jk	.	16c\JJ	.	16ccJJ 16f\	.	16ffJJ 16a\	.	.	.	.	.	.	.	.	.	.	.	.	.	.	.	.	.	.	.	.	.	.	.	.	.	.	.	.	.	.	.	.	.	.
*	*	*	*	*Xtremolo	*	*Xtremolo	*	*Xtremolo	*	*	*	*	*	*	*	*	*	*	*	*	*	*	*	*	*	*	*	*	*	*	*	*	*	*	*	*	*	*	*	*	*	*
!LO:TUP:a:problem=klamra łukowa	!	!LO:TUP:a:problem=klamra łukowa	!	!	!	!	!	!	!	!	!	!	!	!	!	!	!	!	!	!	!	!	!	!	!	!	!	!	!	!	!	!	!	!	!	!	!	!	!	!	!	!
12C\Lyy	.	12C\L	.	8c\	[	8cc 8f\	.	8ff 8a\	[	.	.	.	.	.	.	.	.	.	.	4r	.	.	.	.	.	.	.	.	.	.	.	.	.	.	.	.	.	.	.	.	.	.
12F\yy	.	12F\	.	.	.	.	.	.	.	.	.	.	.	.	.	.	.	.	.	.	.	.	.	.	.	.	.	.	.	.	.	.	.	.	.	.	.	.	.	.	.	.
.	.	.	.	8r	.	8r	[	8r	.	8c/	8A\	.	8cc/	8f\	-stach	.	.	.	.	.	.	.	.	.	.	.	.	8cc>\	.	8cc/	.	.	.	8cc 8f/	8f\	.	8cc\	.	8ccc\	.	8ccc\	.
12A\Jyy	.	12A\J	.	.	.	.	.	.	.	.	.	.	.	.	.	.	.	.	.	.	.	.	.	.	.	.	.	.	.	.	.	.	.	.	.	.	.	.	.	.	.	.
8.G\Lyy	.	8.G\L	.	8.r	.	8.r	.	8.r	.	8.c/	8.G\	.	8.b-/	8.f\	u-	.	.	.	.	2r	.	8.G\L)	.	8.c>\L]	.	8.fL 8.c/)	.	8.b->\L	.	8.b-/L	.	8.G\L)	.	8.b-L 8.f/	2ryy	.	8.b-\L	.	8.bb-\L	.	8.bb-\L	.
16c\Jkyy	.	16c\Jk	.	16c\	.	16c/	.	16c/	.	16c/	16B-\	.	16g/	16e\	-śmiech	.	.	.	.	.	.	16B-\Jk	.	16c>\Jk	.	16e/Jk	.	16g>\Jk	.	16g/Jk	.	16B-\Jk	.	16gJk 16e/	.	.	16g\Jk	.	16gg\Jk	.	16gg\Jk	.
8c'\Lyy	.	8c'\L	.	8c\L	.	8c/L	.	8c/L	.	4c/	4B-\	.	4g/	4e\	miej	.	.	.	.	.	.	4B-\	.	4c>\	.	4e 4c/	.	4g>\	.	4g/	.	4B-\	.	4g 4e/	.	.	4g/	.	4gg\	.	4gg\	.
8B-'\Jyy	.	8B-'\J	.	8B-\J	.	8B-/J	.	8B-/J	.	.	.	.	.	.	.	.	.	.	.	.	.	.	.	.	.	.	.	.	.	.	.	.	.	.	.	.	.	.	.	.	.	.
=28	=28	=28	=28	=28	=28	=28	=28	=28	=28	=28	=28	=28	=28	=28	=28	=28	=28	=28	=28	=28	=28	=28	=28	=28	=28	=28	=28	=28	=28	=28	=28	=28	=28	=28	=28	=28	=28	=28	=28	=28	=28	=28
8A'\Lyy	.	8A'\L	.	4A/	.	4A/	.	4A/	.	4.c#X 4.A/	4.A\	.	4.a/	4.e\	u-	1ryy	.	1ryy	.	1r	.	4.A\	.	2.c#X>\	.	2.e/	.	4.a>\	.	4.a/	.	2.A\	.	4.a 4.e/	4.e\	.	4.a/	.	4.aa\	.	4.aa\	.
8G'\yy	.	8G'\	.	.	.	.	.	.	.	.	.	.	.	.	.	.	.	.	.	.	.	.	.	.	.	.	.	.	.	.	.	.	.	.	.	.	.	.	.	.	.	.
8F'\yy	.	8F'\	.	8r	.	8r	.	8r	.	.	.	.	.	.	.	.	.	.	.	.	.	.	.	.	.	.	.	.	.	.	.	.	.	.	.	.	.	.	.	.	.	.
8E'\Jyy	.	8E'\J	.	8c#X'\	.	8g'/	.	8ee'\	.	8c#/	8A\	.	8ee/	8g\	-śmiech	.	.	.	.	.	.	8A\	.	.	.	.	.	8g>\	.	8ee/	.	.	.	8g/	8e\	.	8a/	.	8ee\	.	8eee\	.
8A'\Lyy	.	8A'\L	.	4c#^\	.	4g^>/	.	4ee^\	.	4c#/	4A\	.	4ee/	4g\	miej,	.	.	.	.	.	.	4A\	.	.	.	.	.	4g>\	.	4ee^/	.	.	.	4g 4e/	4e\	.	4a/	.	4ee\	.	4eee\	.
8AA'\yy	.	8AA'\	.	.	.	.	.	.	.	.	.	.	.	.	.	.	.	.	.	.	.	.	.	.	.	.	.	.	.	.	.	.	.	.	.	.	.	.	.	.	.	.
8D'\yy	.	8D'\	.	4d^\	.	4f^>/	.	4dd^\	.	8r	8ryy	.	8r	8ryy	.	.	.	.	.	.	.	4D\	.	4d>\	.	4f/	.	4f>\	.	4dd^/	.	4D\	.	4f/	4f\	.	4a/	.	4dd\	.	4ddd\	.
8F'\Jyy	.	8F'\J	.	.	.	.	.	.	.	8d/	8D\	.	8dd/	8f\	Mo-	.	.	.	.	.	.	.	.	.	.	.	.	.	.	.	.	.	.	.	.	.	.	.	.	.	.	.
!!LO:PB:g=original
=29	=29	=29	=29	=29	=29	=29	=29	=29	=29	=29	=29	=29	=29	=29	=29	=29	=29	=29	=29	=29	=29	=29	=29	=29	=29	=29	=29	=29	=29	=29	=29	=29	=29	=29	=29	=29	=29	=29	=29	=29	=29	=29
*	*	*	*	*	*	*	*	*	*	*	*	*	*	*	*	*^	*	*^	*	*	*	*^	*	*	*	*	*	*	*	*	*	*	*	*	*	*	*	*	*	*	*	*
*	*	*	*	*	*	*	*	*tremolo	*	*	*	*	*	*	*	*	*	*	*	*	*	*	*	*	*	*	*	*	*	*	*	*	*	*	*	*	*	*	*	*	*	*	*	*	*
!	!	!	!	!	!	!	!LO:DY:rj	!	!	!	!	!	!	!	!	!	!	!LO:DY:rj	!	!	!LO:DY:rj	!	!	!	!	!	!	!	!	!	!	!	!	!	!	!	!	!	!	!	!	!	!	!	!
8G'\Lyy	.	8G'\L	.	8f 8B-\	sf	8dd 8f\	sf	16dd\LL	.	4.d 4.G/	4.G\	.	4.dd/	4.f\	-żne-	8Rcc/	8Rcc\	sf	8Ra/	8Ra\	sf	8GG/	sf	4G/	4G\	sf	8B->/	.	8f/	sf	8f>\	.	8dd/	sf	4.G\	.	4.b- 4.f/	4.f\	.	4.dd\	.	4.dd\	.	4.ddd\	.
.	.	.	.	.	.	.	.	16dd\	.	.	.	.	.	.	.	.	.	.	.	.	.	.	.	.	.	.	.	.	.	.	.	.	.	.	.	.	.	.	.	.	.	.	.	.	.
8d'\yy	.	8d'\	.	8r	.	8r	.	16d\	.	.	.	.	.	.	.	8r	8ryy	.	8r	8ryy	.	8r	.	.	.	.	8ryy	.	8r	.	8ryy	.	8r	.	.	.	.	.	.	.	.	.	.	.	.
.	.	.	.	.	.	.	.	16d\	.	.	.	.	.	.	.	.	.	.	.	.	.	.	.	.	.	.	.	.	.	.	.	.	.	.	.	.	.	.	.	.	.	.	.	.	.
8B-'\yy	.	8B-'\	.	8r	.	8r	.	16d\	.	.	.	.	.	.	.	4r	4ryy	.	4r	4ryy	.	4r	.	4r	4ryy	.	8ryy	.	8r	.	8ryy	.	8r	.	.	.	.	.	.	.	.	.	.	.	.
.	.	.	.	.	.	.	.	16d\	.	.	.	.	.	.	.	.	.	.	.	.	.	.	.	.	.	.	.	.	.	.	.	.	.	.	.	.	.	.	.	.	.	.	.	.	.
!	!	!	!	!	!	!	!	!	!	!	!	!	!	!	!	!	!	!	!	!	!	!	!	!	!	!	!	!	!	!	!	!	!	!	!	!	!	!	!	!	!	!LO:N:vis=4	!	!	!
8G'\Jyy	.	8G'\J	.	8d\	.	8dd\	<	16b-\	.	8d 8G/	8G\	.	8b-/	8b-\	-go	.	.	.	.	.	.	.	.	.	.	.	8D>/	.	8d/	.	8d>/	.	8dd/	.	(8G\	.	8b-/	8b-\	.	(<8b-\	.	(8bb-\	.	(8bb-\	.
.	.	.	.	.	.	.	.	16b-\JJ	.	.	.	.	.	.	.	.	.	.	.	.	.	.	.	.	.	.	.	.	.	.	.	.	.	.	.	.	.	.	.	.	.	.	.	.	.
*	*	*	*	*tremolo	*	*tremolo	*	*	*	*	*	*	*	*	*	*tremolo	*	*	*	*	*	*	*	*	*	*	*	*	*	*	*	*	*	*	*	*	*	*	*	*	*	*	*	*	*
*	*	*	*	*	*	*2\right	*	*	*	*	*	*	*	*	*	*2\right	*	*	*	*	*	*	*	*	*	*	*	*	*	*	*	*	*	*	*	*	*	*	*	*	*	*	*	*	*
!	!	!	!	!	!	!	!	!	!	!	!	!	!	!	!	!LO:TX:a:t=Triangolo solo	!	!	!	!	!	!	!	!	!	!	!	!	!	!	!	!	!	!	!	!	!	!	!	!	!	!	!	!	!
8F'\Lyy	.	8F'\L	.	32d\LLL	.	32dd\LLL	.	16a\LL	.	8d/	8F\	.	8a/	8a\	wscho-	32Rcc\LLL	2ryy	.	2r	2ryy	.	2r	.	2r	2ryy	.	4D>/	.	4d/	sf	4d>/	.	4dd/	sf	8F\L	.	8a/L	(8a\L	.	8a/L	.	8aa\L	.	8aa\L	.
.	.	.	.	32d\	.	32dd\	.	.	.	.	.	.	.	.	.	32Rcc\	.	.	.	.	.	.	.	.	.	.	.	.	.	.	.	.	.	.	.	.	.	.	.	.	.	.	.	.	.
.	.	.	.	32d\	.	32dd\	.	16a\	.	.	.	.	.	.	.	32Rcc\	.	.	.	.	.	.	.	.	.	.	.	.	.	.	.	.	.	.	.	.	.	.	.	.	.	.	.	.	.
.	.	.	.	32d\	.	32dd\	.	.	.	.	.	.	.	.	.	32Rcc\	.	.	.	.	.	.	.	.	.	.	.	.	.	.	.	.	.	.	.	.	.	.	.	.	.	.	.	.	.
8E'\yy	.	8E'\	.	32d\	.	32dd\	.	16g\	.	8d/	8E\	.	8g/	8g\	-du,	32Rcc\	.	.	.	.	.	.	.	.	.	.	.	.	.	.	.	.	.	.	8E\J)	.	8g/J	8g\J)	.	8g/J)	.	8gg\J)	.	8gg\J)	.
.	.	.	.	32d\	.	32dd\	.	.	.	.	.	.	.	.	.	32Rcc\	.	.	.	.	.	.	.	.	.	.	.	.	.	.	.	.	.	.	.	.	.	.	.	.	.	.	.	.	.
.	.	.	.	32d\	.	32dd\	.	16g\	.	.	.	.	.	.	.	32Rcc\	.	.	.	.	.	.	.	.	.	.	.	.	.	.	.	.	.	.	.	.	.	.	.	.	.	.	.	.	.
.	.	.	.	32d\	.	32dd\	.	.	.	.	.	.	.	.	.	32Rcc\	.	.	.	.	.	.	.	.	.	.	.	.	.	.	.	.	.	.	.	.	.	.	.	.	.	.	.	.	.
8E'\yy	.	8E'\	.	32d\	.	32dd\	.	16g\	.	8r	8ryy	.	8r	8ryy	.	32Rcc\	.	.	.	.	.	.	.	.	.	.	4ryy	.	4r	.	4ryy	.	4r	.	8r	.	8r	8ryy	.	8r	.	8r	.	8r	.
.	.	.	.	32d\	.	32dd\	.	.	.	.	.	.	.	.	.	32Rcc\	.	.	.	.	.	.	.	.	.	.	.	.	.	.	.	.	.	.	.	.	.	.	.	.	.	.	.	.	.
.	.	.	.	32d\	.	32dd\	.	16g\	.	.	.	.	.	.	.	32Rcc\	.	.	.	.	.	.	.	.	.	.	.	.	.	.	.	.	.	.	.	.	.	.	.	.	.	.	.	.	.
.	.	.	.	32d\	.	32dd\	.	.	.	.	.	.	.	.	.	32Rcc\	.	.	.	.	.	.	.	.	.	.	.	.	.	.	.	.	.	.	.	.	.	.	.	.	.	.	.	.	.
8F'\Jyy	.	8F'\J	.	32d\	.	32dd\	.	16a\	.	8d/	8F\	.	8a/	8a\	ty	32Rcc\	.	.	.	.	.	.	.	.	.	.	.	.	.	.	.	.	.	.	8F\	.	8a/	8a\	.	8a/	.	8aa\	.	8aa\	.
.	.	.	.	32d\	.	32dd\	.	.	.	.	.	.	.	.	.	32Rcc\	.	.	.	.	.	.	.	.	.	.	.	.	.	.	.	.	.	.	.	.	.	.	.	.	.	.	.	.	.
.	.	.	.	32d\	.	32dd\	.	16a\JJ	.	.	.	.	.	.	.	32Rcc\	.	.	.	.	.	.	.	.	.	.	.	.	.	.	.	.	.	.	.	.	.	.	.	.	.	.	.	.	.
.	.	.	.	32d\JJJ	.	32dd\JJJ	[[	.	.	.	.	.	.	.	.	32Rcc\JJJ	.	.	.	.	.	.	.	.	.	.	.	.	.	.	.	.	.	.	.	.	.	.	.	.	.	.	.	.	.
*	*	*	*	*Xtremolo	*	*Xtremolo	*	*	*	*	*	*	*	*	*	*Xtremolo	*	*	*	*	*	*	*	*	*	*	*	*	*	*	*	*	*	*	*	*	*	*	*	*	*	*	*	*	*
*	*	*	*	*	*	*	*	*	*	*	*	*	*	*	*	*	*	*	*	*	*	*	*	*v	*v	*	*	*	*	*	*	*	*	*	*	*	*	*	*	*	*	*	*	*	*
=30	=30	=30	=30	=30	=30	=30	=30	=30	=30	=30	=30	=30	=30	=30	=30	=30	=30	=30	=30	=30	=30	=30	=30	=30	=30	=30	=30	=30	=30	=30	=30	=30	=30	=30	=30	=30	=30	=30	=30	=30	=30	=30	=30	=30
!	!	!	!	!	!LO:DY:rj	!	!	!	!	!	!	!	!	!	!	!	!	!	!	!	!LO:DY:rj	!	!	!	!	!	!	!	!	!	!	!	!	!	!	!	!	!	!	!	!	!	!	!
8D\Lyy	.	8D\L	.	8f 8B-\	sf	8b- 8f/	sf	16ff\LL	.	4.B-/	4.D\	.	4.ff/	4.f\	per-	8Rcc/	8Rcc\	.	8Ra/	8Ra\	sf	8GG/	sf	4D\	sf	8B->\	.	8f 8B-/	sf	8b->\	.	8ff 8b-/	sf	4.D\	.	4.b- 4.f/	4.f\	.	4.ff\	.	4.ff\	.	4.fff\	.
.	.	.	.	.	.	.	.	16ff\	.	.	.	.	.	.	.	.	.	.	.	.	.	.	.	.	.	.	.	.	.	.	.	.	.	.	.	.	.	.	.	.	.	.	.	.
8f\yy	.	8f\	.	8r	.	8r	.	16f\	.	.	.	.	.	.	.	8r	8ryy	.	8r	8ryy	.	8r	.	.	.	8ryy	.	8r	.	8ryy	.	8r	.	.	.	.	.	.	.	.	.	.	.	.
.	.	.	.	.	.	.	.	16f\	.	.	.	.	.	.	.	.	.	.	.	.	.	.	.	.	.	.	.	.	.	.	.	.	.	.	.	.	.	.	.	.	.	.	.	.
8d\yy	.	8d\	.	8r	.	8r	<	16f\	.	.	.	.	.	.	.	4r	4ryy	.	4r	4ryy	.	4r	.	4r	.	8ryy	.	8r	.	8ryy	.	8r	.	.	.	.	.	.	.	.	.	.	.	.
.	.	.	.	.	.	.	.	16f\	.	.	.	.	.	.	.	.	.	.	.	.	.	.	.	.	.	.	.	.	.	.	.	.	.	.	.	.	.	.	.	.	.	.	.	.
8B-\Jyy	.	8B-\J	.	8f\	.	8ff\	.	16dd\	.	8f/	8B-\	.	8dd/	8dd\	-ło	.	.	.	.	.	.	.	.	.	.	8F>/	.	8f/	.	8f>/	.	8ff/	.	(8B-\	<	8dd/	8dd\	<	(8dd\	<	(8ddd\	<	(8ddd\	<
.	.	.	.	.	.	.	.	16dd\JJ	.	.	.	.	.	.	.	.	.	.	.	.	.	.	.	.	.	.	.	.	.	.	.	.	.	.	.	.	.	.	.	.	.	.	.	.
*	*	*	*	*tremolo	*	*tremolo	*	*	*	*	*	*	*	*	*	*tremolo	*	*	*	*	*	*	*	*	*	*	*	*	*	*	*	*	*	*	*	*	*	*	*	*	*	*	*	*
8A\Lyy	.	8A\L	.	32f\LLL	.	32ff\LLL	.	16cc\LL	.	8f/	8A\	.	8cc/	8cc\	na-	32Rcc\LLL	2ryy	.	2r	2ryy	.	2r	.	2r	.	4F>/	.	4f/	sf	4f>/	.	4ff/	sf	8A\L	.	8cc/L	8cc\L	.	8cc\L	.	8ccc\L	.	8ccc\L	.
.	.	.	.	32f\	.	32ff\	.	.	.	.	.	.	.	.	.	32Rcc\	.	.	.	.	.	.	.	.	.	.	.	.	.	.	.	.	.	.	.	.	.	.	.	.	.	.	.	.
.	.	.	.	32f\	.	32ff\	.	16cc\	.	.	.	.	.	.	.	32Rcc\	.	.	.	.	.	.	.	.	.	.	.	.	.	.	.	.	.	.	.	.	.	.	.	.	.	.	.	.
.	.	.	.	32f\	.	32ff\	.	.	.	.	.	.	.	.	.	32Rcc\	.	.	.	.	.	.	.	.	.	.	.	.	.	.	.	.	.	.	.	.	.	.	.	.	.	.	.	.
8G\yy	.	8G\	.	32f\	.	32ff\	.	16b-\	.	8f/	8G\	.	8b-/	8b-\	-sza,	32Rcc\	.	.	.	.	.	.	.	.	.	.	.	.	.	.	.	.	.	8G\J)	.	8b-/J	8b-\J	.	8b-\J)	.	8bb-\J)	.	8bb-\J)	.
.	.	.	.	32f\	.	32ff\	.	.	.	.	.	.	.	.	.	32Rcc\	.	.	.	.	.	.	.	.	.	.	.	.	.	.	.	.	.	.	.	.	.	.	.	.	.	.	.	.
.	.	.	.	32f\	.	32ff\	.	16b-\	.	.	.	.	.	.	.	32Rcc\	.	.	.	.	.	.	.	.	.	.	.	.	.	.	.	.	.	.	.	.	.	.	.	.	.	.	.	.
.	.	.	.	32f\	.	32ff\	.	.	.	.	.	.	.	.	.	32Rcc\	.	.	.	.	.	.	.	.	.	.	.	.	.	.	.	.	.	.	.	.	.	.	.	.	.	.	.	.
8G\yy	.	8G\	.	32f\	.	32ff\	.	16b-\	.	8r	8ryy	.	8r	8ryy	.	32Rcc\	.	.	.	.	.	.	.	.	.	4ryy	.	4r	.	4ryy	.	4r	.	8r	.	8r	8ryy	.	8r	.	8r	.	8r	.
.	.	.	.	32f\	.	32ff\	.	.	.	.	.	.	.	.	.	32Rcc\	.	.	.	.	.	.	.	.	.	.	.	.	.	.	.	.	.	.	.	.	.	.	.	.	.	.	.	.
.	.	.	.	32f\	.	32ff\	.	16b-\	.	.	.	.	.	.	.	32Rcc\	.	.	.	.	.	.	.	.	.	.	.	.	.	.	.	.	.	.	.	.	.	.	.	.	.	.	.	.
.	.	.	.	32f\	.	32ff\	.	.	.	.	.	.	.	.	.	32Rcc\	.	.	.	.	.	.	.	.	.	.	.	.	.	.	.	.	.	.	.	.	.	.	.	.	.	.	.	.
8F\Jyy	.	8F\J	.	32f\	.	32ff\	.	16dd\	.	8d/	8G\	.	8dd/	8b-\	o	32Rcc\	.	.	.	.	.	.	.	.	.	.	.	.	.	.	.	.	.	8G\	.	8b-/	8g\	.	8dd\	.	8ddd\	.	8ddd\	.
.	.	.	.	32f\	.	32ff\	.	.	.	.	.	.	.	.	.	32Rcc\	.	.	.	.	.	.	.	.	.	.	.	.	.	.	.	.	.	.	.	.	.	.	.	.	.	.	.	.
.	.	.	.	32f\	.	32ff\	.	16dd\JJ	.	.	.	.	.	.	.	32Rcc\	.	.	.	.	.	.	.	.	.	.	.	.	.	.	.	.	.	.	.	.	.	.	.	.	.	.	.	.
.	.	.	.	32f\JJJ	.	32ff\JJJ	.	.	.	.	.	.	.	.	.	32Rcc\JJJ	.	.	.	.	.	.	.	.	.	.	.	.	.	.	.	.	.	.	.	.	.	.	.	.	.	.	.	.
*	*	*	*	*	*	*	*	*	*	*	*	*	*	*	*	*Xtremolo	*	*	*	*	*	*	*	*	*	*	*	*	*	*	*	*	*	*	*	*	*	*	*	*	*	*	*	*
=31	=31	=31	=31	=31	=31	=31	=31	=31	=31	=31	=31	=31	=31	=31	=31	=31	=31	=31	=31	=31	=31	=31	=31	=31	=31	=31	=31	=31	=31	=31	=31	=31	=31	=31	=31	=31	=31	=31	=31	=31	=31	=31	=31	=31
!	!	!	!	!	!	!	!	!	!	!	!	!	!	!	!	!	!	!LO:DY:rj	!	!	!LO:DY:rj	!	!	!	!	!	!	!	!	!	!	!	!	!	!	!	!	!	!	!	!	!	!	!
8E\Lyy	.	8E\L	.	32d\LLL	.	32b-\LLL	.	32gg\LLL	<	2d 2E/	2E\	Gha-	[1gg	2b- [[2g/	Gha-	8Rcc/	8Rcc\	sf	8Ra/	8Ra\	sf	8GG/	sf	(2E\	.	(2d>\	.	[1g	.	(2b->\	.	[1gg	.	2E\	.	[1g	(2d\	<	(2b-\	<	[1gg	<	[1ggg	<
.	.	.	.	32d\	.	32b-\	[	32gg\	.	.	.	.	.	.	.	.	.	.	.	.	.	.	.	.	.	.	.	.	.	.	.	.	.	.	.	.	.	.	.	.	.	.	.	.
.	.	.	.	32d\	.	32b-\	.	32gg\	.	.	.	.	.	.	.	.	.	.	.	.	.	.	.	.	.	.	.	.	.	.	.	.	.	.	.	.	.	.	.	.	.	.	.	.
.	.	.	.	32d\	.	32b-\	.	32gg\	.	.	.	.	.	.	.	.	.	.	.	.	.	.	.	.	.	.	.	.	.	.	.	.	.	.	.	.	.	.	.	.	.	.	.	.
8E\yy	.	8E\	.	32d\	.	32b-\	.	32gg\	.	.	.	.	.	.	.	8r	8ryy	.	8r	8ryy	.	8r	.	.	.	.	.	.	.	.	.	.	.	.	.	.	.	.	.	.	.	.	.	.
.	.	.	.	32d\	.	32b-\	.	32gg\	.	.	.	.	.	.	.	.	.	.	.	.	.	.	.	.	.	.	.	.	.	.	.	.	.	.	.	.	.	.	.	.	.	.	.	.
.	.	.	.	32d\	.	32b-\	.	32gg\	.	.	.	.	.	.	.	.	.	.	.	.	.	.	.	.	.	.	.	.	.	.	.	.	.	.	.	.	.	.	.	.	.	.	.	.
.	.	.	.	32d\	.	32b-\	.	32gg\	.	.	.	.	.	.	.	.	.	.	.	.	.	.	.	.	.	.	.	.	.	.	.	.	.	.	.	.	.	.	.	.	.	.	.	.
8F\yy	.	8F\	.	32d\	.	32b-\	.	32gg\	.	.	.	.	.	.	.	4r	4ryy	.	4r	4ryy	.	4r	.	.	.	.	.	.	.	.	.	.	.	.	.	.	.	.	.	.	.	.	.	.
.	.	.	.	32d\	.	32b-\	.	32gg\	.	.	.	.	.	.	.	.	.	.	.	.	.	.	.	.	.	.	.	.	.	.	.	.	.	.	.	.	.	.	.	.	.	.	.	.
.	.	.	.	32d\	.	32b-\	.	32gg\	.	.	.	.	.	.	.	.	.	.	.	.	.	.	.	.	.	.	.	.	.	.	.	.	.	.	.	.	.	.	.	.	.	.	.	.
.	.	.	.	32d\	.	32b-\	.	32gg\	.	.	.	.	.	.	.	.	.	.	.	.	.	.	.	.	.	.	.	.	.	.	.	.	.	.	.	.	.	.	.	.	.	.	.	.
8G\Jyy	.	8G\J	.	32d\	.	32b-\	.	32gg\	.	.	.	.	.	.	.	.	.	.	.	.	.	.	.	.	.	.	.	.	.	.	.	.	.	.	.	.	.	.	.	.	.	.	.	.
.	.	.	.	32d\	.	32b-\	.	32gg\	.	.	.	.	.	.	.	.	.	.	.	.	.	.	.	.	.	.	.	.	.	.	.	.	.	.	.	.	.	.	.	.	.	.	.	.
.	.	.	.	32d\	.	32b-\	.	32gg\	.	.	.	.	.	.	.	.	.	.	.	.	.	.	.	.	.	.	.	.	.	.	.	.	.	.	.	.	.	.	.	.	.	.	.	.
.	.	.	.	32d\JJJ	.	32b-\JJJ	.	32gg\	.	.	.	.	.	.	.	.	.	.	.	.	.	.	.	.	.	.	.	.	.	.	.	.	.	.	.	.	.	.	.	.	.	.	.	.
8A\Lyy	.	8A\L	.	32c#X\LLL	.	32a/LLL	.	32gg\	.	4.c#X/	4.A\	-zno	.	4.a/	zno	2r	2ryy	.	2r	2ryy	.	2r	.	4A\)	.	4c#X>\)	.	.	.	4a>\)	.	.	.	2A\	.	.	2c#X\)	.	[2a\)	.	.	.	.	.
.	.	.	.	32c#\	.	32a/	.	32gg\	.	.	.	.	.	.	.	.	.	.	.	.	.	.	.	.	.	.	.	.	.	.	.	.	.	.	.	.	.	.	.	.	.	.	.	.
.	.	.	.	32c#\	.	32a/	.	32gg\	.	.	.	.	.	.	.	.	.	.	.	.	.	.	.	.	.	.	.	.	.	.	.	.	.	.	.	.	.	.	.	.	.	.	.	.
.	.	.	.	32c#\	.	32a/	.	32gg\	.	.	.	.	.	.	.	.	.	.	.	.	.	.	.	.	.	.	.	.	.	.	.	.	.	.	.	.	.	.	.	.	.	.	.	.
8A\yy	.	8A\	.	32c#\	.	32a/	.	32gg\	.	.	.	.	.	.	.	.	.	.	.	.	.	.	.	.	.	.	.	.	.	.	.	.	.	.	.	.	.	.	.	.	.	.	.	.
.	.	.	.	32c#\	.	32a/	.	32gg\	.	.	.	.	.	.	.	.	.	.	.	.	.	.	.	.	.	.	.	.	.	.	.	.	.	.	.	.	.	.	.	.	.	.	.	.
.	.	.	.	32c#\	.	32a/	.	32gg\	.	.	.	.	.	.	.	.	.	.	.	.	.	.	.	.	.	.	.	.	.	.	.	.	.	.	.	.	.	.	.	.	.	.	.	.
.	.	.	.	32c#\	.	32a/	.	32gg\	.	.	.	.	.	.	.	.	.	.	.	.	.	.	.	.	.	.	.	.	.	.	.	.	.	.	.	.	.	.	.	.	.	.	.	.
8Bn\yy	.	8Bn\	.	32c#\	.	32a/	.	32gg\	.	.	.	.	.	.	.	.	.	.	.	.	.	.	.	8r	.	8ryy	.	.	.	8r>	.	.	.	.	.	.	.	.	.	.	.	.	.	.
.	.	.	.	32c#\	.	32a/	.	32gg\	.	.	.	.	.	.	.	.	.	.	.	.	.	.	.	.	.	.	.	.	.	.	.	.	.	.	.	.	.	.	.	.	.	.	.	.
.	.	.	.	32c#\	.	32a/	.	32gg\	.	.	.	.	.	.	.	.	.	.	.	.	.	.	.	.	.	.	.	.	.	.	.	.	.	.	.	.	.	.	.	.	.	.	.	.
.	.	.	.	32c#\	.	32a/	.	32gg\	.	.	.	.	.	.	.	.	.	.	.	.	.	.	.	.	.	.	.	.	.	.	.	.	.	.	.	.	.	.	.	.	.	.	.	.
8c#X\Jyy	.	8c#X\J	.	32c#\	.	32a/	.	32gg\	.	8c#/	8A\	o	.	8a/	o	.	.	.	.	.	.	.	.	8A\	.	8c#>\	.	.	.	8a>\	.	.	.	.	.	.	.	.	.	.	.	.	.	.
.	.	.	.	32c#\	.	32a/	.	32gg\	.	.	.	.	.	.	.	.	.	.	.	.	.	.	.	.	.	.	.	.	.	.	.	.	.	.	.	.	.	.	.	.	.	.	.	.
.	.	.	.	32c#\	.	32a/	.	32gg\	.	.	.	.	.	.	.	.	.	.	.	.	.	.	.	.	.	.	.	.	.	.	.	.	.	.	.	.	.	.	.	.	.	.	.	.
.	.	.	.	32c#\JJJ	.	32a/JJJ	.	32gg\JJJ	.	.	.	.	.	.	.	.	.	.	.	.	.	.	.	.	.	.	.	.	.	.	.	.	.	.	.	.	.	.	.	.	.	.	.	.
*	*	*	*	*	*	*	*	*	*	*	*	*	*	*	*	*v	*v	*	*	*	*	*	*	*	*	*	*	*	*	*	*	*	*	*	*	*	*	*	*	*	*	*	*	*
*	*	*	*	*	*	*	*	*	*	*	*	*	*	*	*	*	*	*v	*v	*	*	*	*	*	*	*	*	*	*	*	*	*	*	*	*	*	*	*	*	*	*	*	*
=32	=32	=32	=32	=32	=32	=32	=32	=32	=32	=32	=32	=32	=32	=32	=32	=32	=32	=32	=32	=32	=32	=32	=32	=32	=32	=32	=32	=32	=32	=32	=32	=32	=32	=32	=32	=32	=32	=32	=32	=32	=32	=32
*	*	*	*	*	*	*	*	*	*	*	*	*	*	*^	*	*	*	*	*	*	*	*	*	*	*	*	*	*	*	*	*	*	*	*	*	*	*	*	*	*	*	*
8d\yy	.	8d\	.	32d\LLL	.	32a/LLL	.	32gg\LLL	.	2d/	2D\	Gha-	(4gg/]	2a/	(<4g\]]	Gha-	1ryy	.	1ryy	.	1ryy	.	2.D\	.	2.d>\	.	4g/]	.	2.a>\	.	4gg/]	.	2.D\	.	(4g/]	2.d\	.	2.a/]	.	(4gg\]	.	(4ggg\]	.
.	.	.	.	32d\	.	32a/	.	32gg\	.	.	.	.	.	.	.	.	.	.	.	.	.	.	.	.	.	.	.	.	.	.	.	.	.	.	.	.	.	.	.	.	.	.	.
.	.	.	.	32d\	.	32a/	.	32gg\	.	.	.	.	.	.	.	.	.	.	.	.	.	.	.	.	.	.	.	.	.	.	.	.	.	.	.	.	.	.	.	.	.	.	.
.	.	.	.	32d\	.	32a/	.	32gg\	.	.	.	.	.	.	.	.	.	.	.	.	.	.	.	.	.	.	.	.	.	.	.	.	.	.	.	.	.	.	.	.	.	.	.
4D\yy	.	4D\	.	32d\	.	32a/	.	32gg\	.	.	.	.	.	.	.	.	.	.	.	.	.	.	.	.	.	.	.	.	.	.	.	.	.	.	.	.	.	.	.	.	.	.	.
.	.	.	.	32d\	.	32a/	.	32gg\	.	.	.	.	.	.	.	.	.	.	.	.	.	.	.	.	.	.	.	.	.	.	.	.	.	.	.	.	.	.	.	.	.	.	.
.	.	.	.	32d\	.	32a/	.	32gg\	.	.	.	.	.	.	.	.	.	.	.	.	.	.	.	.	.	.	.	.	.	.	.	.	.	.	.	.	.	.	.	.	.	.	.
.	.	.	.	32d\	.	32a/	.	32gg\JJJ	.	.	.	.	.	.	.	.	.	.	.	.	.	.	.	.	.	.	.	.	.	.	.	.	.	.	.	.	.	.	.	.	.	.	.
.	.	.	.	32d\	.	32a/	.	32ff#X\LLL	.	.	.	.	4ff#X/)	.	4f#X\)	.	.	.	.	.	.	.	.	.	.	.	4f#X/	.	.	.	4ff#X/	.	.	.	4f#X/	.	.	.	[	4ff#X\	.	4fff#X\	.
.	.	.	.	32d\	.	32a/	.	32ff#\	.	.	.	.	.	.	.	.	.	.	.	.	.	.	.	.	.	.	.	.	.	.	.	.	.	.	.	.	.	.	.	.	.	.	.
.	.	.	.	32d\	.	32a/	.	32ff#\	.	.	.	.	.	.	.	.	.	.	.	.	.	.	.	.	.	.	.	.	.	.	.	.	.	.	.	.	.	.	.	.	.	.	.
.	.	.	.	32d\	.	32a/	.	32ff#\	.	.	.	.	.	.	.	.	.	.	.	.	.	.	.	.	.	.	.	.	.	.	.	.	.	.	.	.	.	.	.	.	.	.	.
4D\yy	.	4D\	.	32d\	.	32a/	.	32ff#\	[	.	.	.	.	.	.	.	.	.	.	.	.	.	.	.	.	.	.	.	.	.	.	.	.	.	.	.	.	.	.	.	.	.	.
.	.	.	.	32d\	.	32a/	.	32ff#\	.	.	.	.	.	.	.	.	.	.	.	.	.	.	.	.	.	.	.	.	.	.	.	.	.	.	.	.	.	.	.	.	.	.	.
.	.	.	.	32d\	.	32a/	.	32ff#\	.	.	.	.	.	.	.	.	.	.	.	.	.	.	.	.	.	.	.	.	.	.	.	.	.	.	.	.	.	.	.	.	.	.	.
.	.	.	.	32d\	.	32a/	.	32ff#\JJJ	.	.	.	.	.	.	.	.	.	.	.	.	.	.	.	.	.	.	.	.	.	.	.	.	.	.	.	.	.	.	.	.	.	.	.
*	*	*	*	*	*	*	*	*Xtremolo	*	*	*	*	*	*	*	*	*	*	*	*	*	*	*	*	*	*	*	*	*	*	*	*	*	*	*	*	*	*	*	*	*	*	*
.	.	.	.	32d\	.	32a/	.	8ffn\	.	4d/	4D\	-zno	4ffn/	4a 4fn\	2ryy	-zno	.	.	.	.	.	.	.	.	.	.	4f/	.	.	.	4ff/	.	.	.	4f/)	.	.	.	.	4ffn\)	[	4fffn\)	[
.	.	.	.	32d\	.	32a/	.	.	.	.	.	.	.	.	.	.	.	.	.	.	.	.	.	.	.	.	.	.	.	.	.	.	.	.	.	.	.	.	.	.	.	.	.
.	.	.	.	32d\	.	32a/	.	.	.	.	.	.	.	.	.	.	.	.	.	.	.	.	.	.	.	.	.	.	.	.	.	.	.	.	.	.	.	.	.	.	.	.	.
.	.	.	.	32d\	.	32a/	.	.	.	.	.	.	.	.	.	.	.	.	.	.	.	.	.	.	.	.	.	.	.	.	.	.	.	.	.	.	[	.	.	.	.	.	.
8d\Lyy	.	8d\L	.	32d\	.	32a/	.	8r	.	.	.	.	.	.	.	.	.	.	.	.	.	.	.	.	.	.	.	.	.	.	.	.	.	.	.	.	.	.	.	.	.	.	.
.	.	.	.	32d\	.	32a/	.	.	.	.	.	.	.	.	.	.	.	.	.	.	.	.	.	.	.	.	.	.	.	.	.	.	.	.	.	.	.	.	.	.	.	.	.
.	.	.	.	32d\	.	32a/	.	.	.	.	.	.	.	.	.	.	.	.	.	.	.	.	.	.	.	.	.	.	.	.	.	.	.	.	.	.	.	.	.	.	.	.	.
.	.	.	.	32d\	.	32a/JJJ	.	.	.	.	.	.	.	.	.	.	.	.	.	.	.	.	.	.	.	.	.	.	.	.	.	.	.	.	.	.	.	.	.	.	.	.	.
8cn\yy	.	8cn\	.	32d\	.	32g#X/LLL	.	8r	.	8r	8ryy	.	8r	8r	.	.	.	.	.	.	.	.	4r	.	4ryy	.	4r	.	4ryy	.	4r	.	8r	.	8r	8ryy	.	8r	.	8r	.	8r	.
.	.	.	.	32d\	.	32g#/	.	.	.	.	.	.	.	.	.	.	.	.	.	.	.	.	.	.	.	.	.	.	.	.	.	.	.	.	.	.	.	.	.	.	.	.	.
.	.	.	.	32d\	.	32g#/	.	.	.	.	.	.	.	.	.	.	.	.	.	.	.	.	.	.	.	.	.	.	.	.	.	.	.	.	.	.	.	.	.	.	.	.	.
.	.	.	.	32d\	.	32g#/	.	.	.	.	.	.	.	.	.	.	.	.	.	.	.	.	.	.	.	.	.	.	.	.	.	.	.	.	.	.	.	.	.	.	.	.	.
8Bn\Jyy	.	8Bn\J	.	32d\	.	32g#/	.	8ff\	.	8d/	8BBn\	.	8ff/	8g#X 8f\	.	o	.	.	.	.	.	.	.	.	.	.	.	.	.	.	.	.	8BBn/	.	8f/	8d\	.	8g#X/	.	8ff\	.	8fff\	.
.	.	.	.	32d\	.	32g#/	.	.	.	.	.	.	.	.	.	.	.	.	.	.	.	.	.	.	.	.	.	.	.	.	.	.	.	.	.	.	.	.	.	.	.	.	.
.	.	.	.	32d\	.	32g#/	.	.	.	.	.	.	.	.	.	.	.	.	.	.	.	.	.	.	.	.	.	.	.	.	.	.	.	.	.	.	.	.	.	.	.	.	.
.	.	.	.	32d\JJJ	.	32g#/JJJ	.	.	.	.	.	.	.	.	.	.	.	.	.	.	.	.	.	.	.	.	.	.	.	.	.	.	.	.	.	.	.	.	.	.	.	.	.
*	*	*	*	*	*	*Xtremolo	*	*	*	*	*	*	*	*	*	*	*	*	*	*	*	*	*	*	*	*	*	*	*	*	*	*	*	*	*	*	*	*	*	*	*	*	*
*	*	*	*	*	*	*	*	*	*	*	*	*	*	*v	*v	*	*	*	*	*	*	*	*	*	*	*	*	*	*	*	*	*	*	*	*v	*v	*	*	*	*	*	*	*
!!LO:PB:g=original
=33	=33	=33	=33	=33	=33	=33	=33	=33	=33	=33	=33	=33	=33	=33	=33	=33	=33	=33	=33	=33	=33	=33	=33	=33	=33	=33	=33	=33	=33	=33	=33	=33	=33	=33	=33	=33	=33	=33	=33	=33	=33
8c\Lyy	.	8c\L	.	32c\LLL	.	(16a\LL	.	(16ff\LL	.	4c 4C/	4C\	.	(4ff 4a/	4a 4f\	Gha-	1r	.	1r	.	2r	.	4C/	.	4c>\	.	4f/	.	4a>\	.	4ff 4a/	.	2C/	.	4ff 4a\	.	4ff\	.	4aa\	.	4fff\	.
.	.	.	.	32c\	.	.	.	.	.	.	.	.	.	.	.	.	.	.	.	.	.	.	.	.	.	.	.	.	.	.	.	.	.	.	.	.	.	.	.	.	.
.	.	.	.	32c\	.	16a\	.	16a\	.	.	.	.	.	.	.	.	.	.	.	.	.	.	.	.	.	.	.	.	.	.	.	.	.	.	.	.	.	.	.	.	.
.	.	.	.	32c\	.	.	.	.	.	.	.	.	.	.	.	.	.	.	.	.	.	.	.	.	.	.	.	.	.	.	.	.	.	.	.	.	.	.	.	.	.
8AA'\yy	.	8AA'\	.	32c\	.	16cc\	.	16cc\	.	.	.	.	.	.	.	.	.	.	.	.	.	.	.	.	.	.	.	.	.	.	.	.	.	.	.	.	.	.	.	.	.
.	.	.	.	32c\	.	.	.	.	.	.	.	.	.	.	.	.	.	.	.	.	.	.	.	.	.	.	.	.	.	.	.	.	.	.	.	.	.	.	.	.	.
.	.	.	.	32c\	.	16ff\JJ	.	16ff\JJ	.	.	.	.	.	.	.	.	.	.	.	.	.	.	.	.	.	.	.	.	.	.	.	.	.	.	.	.	.	.	.	.	.
.	.	.	.	32c\JJJ	.	.	.	.	.	.	.	.	.	.	.	.	.	.	.	.	.	.	.	.	.	.	.	.	.	.	.	.	.	.	.	.	.	.	.	.	.
*	*	*	*	*Xtremolo	*	*	*	*	*	*	*	*	*	*	*	*	*	*	*	*	*	*	*	*	*	*	*	*	*	*	*	*	*	*	*	*	*	*	*	*	*
8C'\yy	.	8C'\	.	4A/	.	16aa\LL	.	16aa\LL	.	4A 4C/	4C\	.	4cc/)	4f\	-zno,	.	.	.	.	.	.	4A\	.	4A>\	.	4c/	.	4f>\	.	4cc 4f/	.	.	.	4cc 4f\	.	4cc\	.	4ff\	.	4ccc\	.
.	.	.	.	.	.	16cc\	.	16cc\	.	.	.	.	.	.	.	.	.	.	.	.	.	.	.	.	.	.	.	.	.	.	.	.	.	.	.	.	.	.	.	.	.
8F'\Jyy	.	8F'\J	.	.	.	16ff\	.	16ff\	.	.	.	.	.	.	.	.	.	.	.	.	.	.	.	.	.	.	.	.	.	.	.	.	.	.	.	.	.	.	.	.	.
.	.	.	.	.	.	16aa\JJ	.	16aa\JJ	.	.	.	.	.	.	.	.	.	.	.	.	.	.	.	.	.	.	.	.	.	.	.	.	.	.	.	.	.	.	.	.	.
8A'\Lyy	.	8A'\L	.	8r	.	8ccc\L)	.	8ccc\L)	.	8r	8ryy	.	8r	8ryy	.	.	.	.	.	4r	.	8r	.	8ryy	.	8r	.	8ryy	.	8r	.	8r	.	8r	.	8r	.	8r	.	8r	.
8c'\yy	.	8c'\	.	8fL 8c\	.	8a'\	.	8aa'\	.	8c/	8c\	.	8a/	8f\	na	.	.	.	.	.	.	8c\L	.	8c>\L	.	8c/L	.	8f>/L	.	8a/L	.	8c'\L	.	8aL 8f\	.	8a'\L	.	8ff'\L	.	8aa'\L	.
8B-'\yy	.	8B-'\	.	8f 8d\	.	8b-'\	.	8bb-'\	.	8d/	8B-X\	.	8b-/	8f\	u-	.	.	.	.	8r	.	8B-\	.	8d>\	.	8d/	.	8f>/	.	8b-/	.	8B-'\	.	8b- 8f\	.	8b-'\	.	8ff'\	.	8bb-'\	.
8A'\Jyy	.	8A'\J	.	8fJ 8c\	.	8cc'\J	.	8ccc'\J	.	8c/	8A\	.	8cc/	8f\	-stach	.	.	.	.	8C/	.	8A\J	.	8c>\J	.	8c/J	.	8f>/J	.	8cc/J	.	8A'\J	.	8ccJ 8f\	.	8cc'\J	.	8ff'\J	.	8ccc'\J	.
=34	=34	=34	=34	=34	=34	=34	=34	=34	=34	=34	=34	=34	=34	=34	=34	=34	=34	=34	=34	=34	=34	=34	=34	=34	=34	=34	=34	=34	=34	=34	=34	=34	=34	=34	=34	=34	=34	=34	=34	=34	=34
*	*	*	*	*	*	*	*	*	*	*	*	*	*	*	*	*^	*	*^	*	*	*	*	*	*	*	*	*	*	*	*	*	*	*	*^	*	*	*	*	*	*	*
*	*	*	*	*tremolo	*	*tremolo	*	*tremolo	*	*	*	*	*	*	*	*	*	*	*	*	*	*tremolo	*	*	*	*	*	*	*	*	*	*	*	*	*	*	*	*	*	*	*	*	*	*
*	*	*	*	*	*	*	*	*2\right	*	*	*	*	*	*	*	*	*	*	*	*	*	*	*	*	*	*	*	*	*	*	*	*	*	*	*	*	*	*	*	*	*	*	*	*
4G\yy	.	4G\	.	32fLLL 32B-\	.	(32dd\LLL	.	(32ddd\LLL	.	2B-/	2G\	.	2..dd/	2f\	u-	4Rcc/	4Rcc\	.	4Ra/	4Ra\	.	32GG/LLL	.	2G\	.	1ryy	.	1B-	.	2f>\	.	2..dd/	.	2G\	.	2..dd/	2f\	.	2..dd\	.	2ff\	.	2..ddd\	.
.	.	.	.	32f 32B-\	.	32dd\	.	32ddd\	.	.	.	.	.	.	.	.	.	.	.	.	.	32GG/	.	.	.	.	.	.	.	.	.	.	.	.	.	.	.	.	.	.	.	.	.	.
.	.	.	.	32f 32B-\	.	32dd\	.	32ddd\	.	.	.	.	.	.	.	.	.	.	.	.	.	32GG/	.	.	.	.	.	.	.	.	.	.	.	.	.	.	.	.	.	.	.	.	.	.
.	.	.	.	32f 32B-\	.	32dd\	.	32ddd\	.	.	.	.	.	.	.	.	.	.	.	.	.	32GG/	.	.	.	.	.	.	.	.	.	.	.	.	.	.	.	.	.	.	.	.	.	.
.	.	.	.	32f 32B-\	.	32dd\	.	32ddd\	.	.	.	.	.	.	.	.	.	.	.	.	.	32GG/	.	.	.	.	.	.	.	.	.	.	.	.	.	.	.	.	.	.	.	.	.	.
.	.	.	.	32f 32B-\	.	32dd\	.	32ddd\	.	.	.	.	.	.	.	.	.	.	.	.	.	32GG/	.	.	.	.	.	.	.	.	.	.	.	.	.	.	.	.	.	.	.	.	.	.
.	.	.	.	32f 32B-\	.	32dd\	.	32ddd\	.	.	.	.	.	.	.	.	.	.	.	.	.	32GG/	.	.	.	.	.	.	.	.	.	.	.	.	.	.	.	.	.	.	.	.	.	.
.	.	.	.	32f 32B-\	.	32dd\	.	32ddd\	.	.	.	.	.	.	.	.	.	.	.	.	.	32GG/	.	.	.	.	.	.	.	.	.	.	.	.	.	.	.	.	.	.	.	.	.	.
4GG/yy	.	4GG/	.	32f 32B-\	.	32dd\	.	32ddd\	.	.	.	.	.	.	.	4r	4ryy	.	4r	4ryy	.	32GG/	.	.	.	.	.	.	.	.	.	.	.	.	.	.	.	.	.	.	.	.	.	.
.	.	.	.	32f 32B-\	.	32dd\	.	32ddd\	.	.	.	.	.	.	.	.	.	.	.	.	.	32GG/	.	.	.	.	.	.	.	.	.	.	.	.	.	.	.	.	.	.	.	.	.	.
.	.	.	.	32f 32B-\	.	32dd\	.	32ddd\	.	.	.	.	.	.	.	.	.	.	.	.	.	32GG/	.	.	.	.	.	.	.	.	.	.	.	.	.	.	.	.	.	.	.	.	.	.
.	.	.	.	32f 32B-\	.	32dd\	.	32ddd\	.	.	.	.	.	.	.	.	.	.	.	.	.	32GG/	.	.	.	.	.	.	.	.	.	.	.	.	.	.	.	.	.	.	.	.	.	.
.	.	.	.	32f 32B-\	.	32dd\	.	32ddd\	.	.	.	.	.	.	.	.	.	.	.	.	.	32GG/	.	.	.	.	.	.	.	.	.	.	.	.	.	.	.	.	.	.	.	.	.	.
.	.	.	.	32f 32B-\	.	32dd\	.	32ddd\	.	.	.	.	.	.	.	.	.	.	.	.	.	32GG/	.	.	.	.	.	.	.	.	.	.	.	.	.	.	.	.	.	.	.	.	.	.
.	.	.	.	32f 32B-\	.	32dd\	.	32ddd\	.	.	.	.	.	.	.	.	.	.	.	.	.	32GG/	.	.	.	.	.	.	.	.	.	.	.	.	.	.	.	.	.	.	.	.	.	.
.	.	.	.	32fJJJ 32B-\	.	32dd\JJJ	.	32ddd\JJJ	.	.	.	.	.	.	.	.	.	.	.	.	.	32GG/JJJ	.	.	.	.	.	.	.	.	.	.	.	.	.	.	.	.	.	.	.	.	.	.
*	*	*	*	*Xtremolo	*	*Xtremolo	*	*Xtremolo	*	*	*	*	*	*	*	*	*	*	*	*	*	*	*	*	*	*	*	*	*	*	*	*	*	*	*	*	*	*	*	*	*	*	*	*
4C/yy	.	4C/	.	4B-/	.	4e/)	.	4dd\)	.	2B-/	2C\	.	.	2e\	.	2r	2ryy	.	2r	2ryy	.	32C/LLL	.	2C/	.	.	.	.	.	2e>\	.	.	.	2C/	.	.	2e\	.	.	.	2ee\	.	.	.
.	.	.	.	.	.	.	.	.	.	.	.	.	.	.	.	.	.	.	.	.	.	32C/	.	.	.	.	.	.	.	.	.	.	.	.	.	.	.	.	.	.	.	.	.	.
.	.	.	.	.	.	.	.	.	.	.	.	.	.	.	.	.	.	.	.	.	.	32C/	.	.	.	.	.	.	.	.	.	.	.	.	.	.	.	.	.	.	.	.	.	.
.	.	.	.	.	.	.	.	.	.	.	.	.	.	.	.	.	.	.	.	.	.	32C/	.	.	.	.	.	.	.	.	.	.	.	.	.	.	.	.	.	.	.	.	.	.
.	.	.	.	.	.	.	.	.	.	.	.	.	.	.	.	.	.	.	.	.	.	32C/	.	.	.	.	.	.	.	.	.	.	.	.	.	.	.	.	.	.	.	.	.	.
.	.	.	.	.	.	.	.	.	.	.	.	.	.	.	.	.	.	.	.	.	.	32C/	.	.	.	.	.	.	.	.	.	.	.	.	.	.	.	.	.	.	.	.	.	.
.	.	.	.	.	.	.	.	.	.	.	.	.	.	.	.	.	.	.	.	.	.	32C/	.	.	.	.	.	.	.	.	.	.	.	.	.	.	.	.	.	.	.	.	.	.
.	.	.	.	.	.	.	.	.	.	.	.	.	.	.	.	.	.	.	.	.	.	32C/	.	.	.	.	.	.	.	.	.	.	.	.	.	.	.	.	.	.	.	.	.	.
8ryy	.	8r	.	8r	.	8r	.	8r	.	.	.	.	.	.	.	.	.	.	.	.	.	32C/	.	.	.	.	.	.	.	.	.	.	.	.	.	.	.	.	.	.	.	.	.	.
.	.	.	.	.	.	.	.	.	.	.	.	.	.	.	.	.	.	.	.	.	.	32C/	.	.	.	.	.	.	.	.	.	.	.	.	.	.	.	.	.	.	.	.	.	.
.	.	.	.	.	.	.	.	.	.	.	.	.	.	.	.	.	.	.	.	.	.	32C/	.	.	.	.	.	.	.	.	.	.	.	.	.	.	.	.	.	.	.	.	.	.
.	.	.	.	.	.	.	.	.	.	.	.	.	.	.	.	.	.	.	.	.	.	32C/	.	.	.	.	.	.	.	.	.	.	.	.	.	.	.	.	.	.	.	.	.	.
8C/yy	.	8C/	.	8B-/	.	8e/	.	8cc\	.	.	.	.	8cc/	.	-śmiech	.	.	.	.	.	.	32C/	.	.	.	.	.	.	.	.	.	8cc/	.	.	.	8cc/	.	.	8cc\	.	.	.	8ccc\	.
.	.	.	.	.	.	.	.	.	.	.	.	.	.	.	.	.	.	.	.	.	.	32C/	.	.	.	.	.	.	.	.	.	.	.	.	.	.	.	.	.	.	.	.	.	.
.	.	.	.	.	.	.	.	.	.	.	.	.	.	.	.	.	.	.	.	.	.	32C/	.	.	.	.	.	.	.	.	.	.	.	.	.	.	.	.	.	.	.	.	.	.
.	.	.	.	.	.	.	.	.	.	.	.	.	.	.	.	.	.	.	.	.	.	32C/JJJ	.	.	.	.	.	.	.	.	.	.	.	.	.	.	.	.	.	.	.	.	.	.
*	*	*	*	*	*	*	*	*	*	*	*	*	*	*	*	*	*	*	*	*	*	*Xtremolo	*	*	*	*	*	*	*	*	*	*	*	*	*	*	*	*	*	*	*	*	*	*
*	*	*	*	*	*	*	*	*	*	*	*	*	*	*	*	*v	*v	*	*	*	*	*	*	*	*	*	*	*	*	*	*	*	*	*	*	*v	*v	*	*	*	*	*	*	*
*	*	*	*	*	*	*	*	*	*	*	*	*	*	*	*	*	*	*v	*v	*	*	*	*	*	*	*	*	*	*	*	*	*	*	*	*	*	*	*	*	*	*	*
=35	=35	=35	=35	=35	=35	=35	=35	=35	=35	=35	=35	=35	=35	=35	=35	=35	=35	=35	=35	=35	=35	=35	=35	=35	=35	=35	=35	=35	=35	=35	=35	=35	=35	=35	=35	=35	=35	=35	=35	=35	=35
4F\yy	.	4F\	.	8A/	.	8.f/L	.	8.f\L	.	4A/	4F\	.	4f/	4f\	miej!	1r	.	1r	.	4C/	.	4F\	.	4ryy	.	8.A\L	.	8.f>\L	.	8.f/L	.	4F\	.	[1a [1f	.	[1ff	.	[2ff\	.	[2ff\	.
.	.	.	.	8r	.	.	.	.	.	.	.	.	.	.	.	.	.	.	.	.	.	.	.	.	.	.	.	.	.	.	.	.	.	.	.	.	.	.	.	.	.
.	.	.	.	.	.	16aJk 16f/	.	16ffJk 16a\	.	.	.	.	.	.	.	.	.	.	.	.	.	.	.	.	.	16f\Jk	.	16a>\Jk	.	16a/Jk	.	.	.	.	.	.	.	.	.	.	.
!LO:TUP:a:problem=klamra łukowa	!	!LO:TUP:a:problem=klamra łukowa	!	!LO:TUP:a:problem=klamra łukowa	!	!	!	!	!	!	!	!	!	!	!	!	!	!	!	!	!	!	!	!	!	!	!	!	!	!	!	!LO:TUP:a:problem=klamra łukowa	!	!	!	!	!	!	!	!	!
12ryy	.	12r	.	12r	.	[4a [4f/	.	[4ff [4a\	.	4r	4ryy	.	4r	4ryy	.	.	.	.	.	4r	.	4r	.	2.f>\	.	[2.f/	.	(4a>\	.	[4a/	.	12r	.	.	.	.	.	.	.	.	.
12e\Lyy	.	12e\L	.	12e\L	.	.	.	.	.	.	.	.	.	.	.	.	.	.	.	.	.	.	.	.	.	.	.	.	.	.	.	12e\L	.	.	.	.	.	.	.	.	.
12d\Jyy	.	12d\J	.	12d\J	.	.	.	.	.	.	.	.	.	.	.	.	.	.	.	.	.	.	.	.	.	.	.	.	.	.	.	12d\J	.	.	.	.	.	.	.	.	.
4.e\yy	.	4.e\	.	4.e\	.	8.a]L 8.f/]	.	8.ff]L 8.a\]	.	2r	2ryy	.	2r	2ryy	.	.	.	.	.	2r	.	2r	.	.	.	.	.	8.f>\L)	.	8.a/L]	.	4.e\	.	.	.	.	.	8.ff\L]	.	8.ff\L]	.
.	.	.	.	.	.	16aJk 16f/	.	16aaJk 16a\	.	.	.	.	.	.	.	.	.	.	.	.	.	.	.	.	.	.	.	16f>\Jk	.	16a/Jk	.	.	.	.	.	.	.	16ff\Jk	.	16aa\Jk	.
.	.	.	.	.	.	[4ff [4a\	.	[4aa [4a\	.	.	.	.	.	.	.	.	.	.	.	.	.	.	.	.	.	.	.	[4f>\	.	[4a/	.	.	.	.	.	.	.	[4ff\	.	[4aa\	.
8d\yy	.	8d\	.	8d\	.	.	.	.	.	.	.	.	.	.	.	.	.	.	.	.	.	.	.	.	.	.	.	.	.	.	.	8d\	.	.	.	.	.	.	.	.	.
*	*	*	*	*	*	*	*	*	*	*v	*v	*	*	*	*	*	*	*	*	*	*	*	*	*	*	*	*	*	*	*	*	*	*	*	*	*	*	*	*	*	*
*	*	*	*	*	*	*	*	*	*	*	*	*v	*v	*	*	*	*	*	*	*	*	*	*	*	*	*	*	*	*	*	*	*	*	*	*	*	*	*	*	*
=36	=36	=36	=36	=36	=36	=36	=36	=36	=36	=36	=36	=36	=36	=36	=36	=36	=36	=36	=36	=36	=36	=36	=36	=36	=36	=36	=36	=36	=36	=36	=36	=36	=36	=36	=36	=36	=36	=36	=36
*	*	*	*	*	*	*	*	*	*	*	*	*	*	*^	*	*^	*	*	*	*	*	*	*	*	*	*	*	*	*	*	*	*	*	*	*	*	*	*	*
8d-X\Lyy	.	8d-X\L	.	8d-X\L	.	8ff] 8a\]	.	8aa] 8a\]	.	1ryy	.	1ryy	.	4r	4ryy	.	4r	4ryy	.	4r	.	4r	.	2.f>\	.	2.f/]	.	8f>\]	.	8a/]	.	8d-X\L	.	2.a] 2.f/]	.	2.ff\]	.	8ff\]	.	8aa\]	.
8c\yy	.	8c\	.	8c\	.	4ff 4a\	.	4ccc 4a\	.	.	.	.	.	.	.	.	.	.	.	.	.	.	.	.	.	.	.	4a>\	.	4cc/	.	8c\	.	.	.	.	.	4aa\	.	4ccc\	.
8Bn\yy	.	8Bn\	.	8Bn\	.	.	.	.	.	.	.	.	.	8r	8ryy	.	8r	8ryy	.	8r	.	8r	.	.	.	.	.	.	.	.	.	8Bn\	.	.	.	.	.	.	.	.	.
8c\Jyy	.	8c\J	.	8c\J	.	8ff 8a\	.	8aa 8a\	.	.	.	.	.	8Rcc/	8Rcc\	.	8Ra/	8Ra\	.	8C/	.	8C/	.	.	.	.	.	8a>\	.	8ff 8a/	.	8c\J	.	.	.	.	.	8aa\	.	8fff\	.
4F\yy	.	4F\	.	4F/	.	4cc 4f\	.	4ff 4a\	.	.	.	.	.	4Rcc/	4Rcc\	.	4Ra/	4Ra\	.	4C/	.	4FF/	.	.	.	.	.	4a>\	.	4ff 4a/	.	4f\	.	.	.	.	.	4aa\	.	4fff\	.
4ryy	.	4r	.	4r	.	4r	.	4r	.	.	.	.	.	4r	4ryy	.	4r	4ryy	.	4r	.	4r	.	4ryy	.	4r	.	4ryy	.	4r	.	4r	.	4r	.	4r	.	4r	.	4r	.
*	*	*	*	*	*	*	*	*	*	*	*	*	*	*v	*v	*	*	*	*	*	*	*	*	*	*	*	*	*	*	*	*	*	*	*	*	*	*	*	*	*	*
*	*	*	*	*	*	*	*	*	*	*	*	*	*	*	*	*v	*v	*	*	*	*	*	*	*	*	*	*	*	*	*	*	*	*	*	*	*	*	*	*	*
==	==	==	==	==	==	==	==	==	==	==	==	==	==	==	==	==	==	==	==	==	==	==	==	==	==	==	==	==	==	==	==	==	==	==	==	==	==	==	==
*-	*-	*-	*-	*-	*-	*-	*-	*-	*-	*-	*-	*-	*-	*-	*-	*-	*-	*-	*-	*-	*-	*-	*-	*-	*-	*-	*-	*-	*-	*-	*-	*-	*-	*-	*-	*-	*-	*-	*-
!!!system-decoration: ({s1,s2}s3,s4,s5{s6,s7}{s8,s9}s10,s11,s12,s13{g1}{s16,s17}s18{s19,s20})
!!!RDF**kern: > = above
!!!RDF**kern: < = below
!!!RDF**dynam: < = "cresc"
!!!ENC: Andrzej Kubiczek
!!!END: 2021-11-07
!!!ENC: Marta Lawrence
!!!END: 2021-11-21
!!!YEC: Copyright 2022 Narodowy Instytut Fryderyka Chopina (https://polishscores.org)
!!!YEM: License CC-BY-4.0 (https://creativecommons.org/licenses/by/4.0)
